!!!!SEGMENT: pl-cz--iii-204--003_engel-jan--offertorium-3.krn
!!!cenid: 17xx:193
!!!COM: Engel, Jan
!!!COM-rismid: pe30009138
!!!CDT: <1772->1788
!!!CNT:
!!!OTL: Offertorium - 3
!!!PDT:
!!!AGN: Sacred
!!!SMS-siglum: PL-CZ
!!!SMS-shelfmark: III-204
!!!SMS-shelfwork: 003 W
!!!NIFC-rismid:
!!!URL-scan: http://repozytorium.nifc.pl/skany/pl-cz-nut--iii-204
!!!ONB-nifc: UWAGA: części Offertorium: I, II, III, IV
**kern	**dynam	**kern	**dynam	**kern	**dynam	**kern	**text	**kern	**text	**kern	**text	**dynam	**kern	**text	**dynam	**kern	**dynam	**kern	**dynam
*part9	*part9	*part4	*part4	*part3	*part3	*part8	*part8	*part7	*part7	*part6	*part6	*part6	*part5	*part5	*part5	*part2	*part2	*part1	*part1
*group3	*	*group3	*	*group3	*	*group2	*	*group2	*	*group2	*	*	*group2	*	*	*group1	*	*group1	*
*staff9	*	*staff4	*	*staff3	*	*staff8	*staff8	*staff7	*staff7	*staff6	*staff6	*	*staff5	*staff5	*	*staff2	*	*staff1	*
*Iempty	*	*Ivioln	*	*Ivioln	*	*Iempty	*	*Itenor	*	*Ialto	*	*	*Ivox	*	*	*Iempty	*	*Iempty	*
*I"Baſso.	*	*I"Violino Secondo	*	*I"Violino Primo.	*	*I"Baſso.	*	*I"Tenore	*	*I"Alto	*	*	*I"Canto.	*	*	*I"Cornu IIdo in G	*	*I"Cornu Primo in G	*
*I'Bc	*	*I'Vn II	*	*I'Vn I	*	*I'B	*	*I'T	*	*I'A	*	*	*I'C	*	*	*I'Cor II	*	*I'Cor I	*
*clefF4	*	*clefG2	*	*clefG2	*	*clefF4	*	*clefC4	*	*clefC3	*	*	*clefC1	*	*	*clefG2	*	*clefG2	*
*	*	*	*	*	*	*	*	*	*	*	*	*	*	*	*	*ITrd3c5	*	*ITrd3c5	*
*k[f#]	*	*k[f#]	*	*k[f#]	*	*k[f#]	*	*k[f#]	*	*k[f#]	*	*	*k[f#]	*	*	*k[f#]	*	*k[f#]	*
*G:	*	*G:	*	*G:	*	*G:	*	*G:	*	*G:	*	*	*G:	*	*	*	*	*	*
*M3/8	*	*M3/8	*	*M3/8	*	*M3/8	*	*M3/8	*	*M3/8	*	*	*M3/8	*	*	*M3/4	*	*M3/8	*
=1	=1	=1	=1	=1	=1	=1	=1	=1	=1	=1	=1	=1	=1	=1	=1	=1	=1	=1	=1
*	*	*	*	*	*	*	*	*	*	*	*	*	*	*	*	*rscale:2	*	*	*
!LO:TX:a:t=P:problem:mixed beam	!	!	!	!	!	!LO:N:vis=00	!	!LO:N:vis=00	!	!LO:N:vis=00	!	!	!LO:N:vis=00	!	!	!	!	!	!
!LO:TX:a:t=allegretto	!	!LO:TX:a:t=allegretto	!	!LO:TX:a:t=Allegretto.	!	!LO:TX:a:t=allegretto	!	!LO:TX:a:t=allegretto	!	!LO:TX:a:t=allegro	!	!	!LO:TX:a:t=allegretto	!	!	!LO:TX:a:t=allegro	!	!LO:TX:a:t=allegretto	!
8G\L	.	16dLL 16B/	.	8gg 8b 8d/	.	1.r	.	1.r	.	1.r	.	.	1.r	.	.	8B/	.	8g\	.
.	.	16d 16B/	.	.	.	.	.	.	.	.	.	.	.	.	.	.	.	.	.
!	!	!	!	!	!	!	!	!	!	!	!	!	!	!	!	!LO:TX:a:t=P:problem:w rekopisie w tym głosie jest metrum 3/4	!	!	!
8GG/J	.	16d 16B/	.	32g/LLL	.	.	.	.	.	.	.	.	.	.	.	8r	.	8r	.
.	.	.	.	(32f#/	.	.	.	.	.	.	.	.	.	.	.	.	.	.	.
.	.	16d 16B/	.	32g/	.	.	.	.	.	.	.	.	.	.	.	.	.	.	.
.	.	.	.	32a/JJJ)	.	.	.	.	.	.	.	.	.	.	.	.	.	.	.
8r	.	16d 16B/	.	16g'/LL	.	.	.	.	.	.	.	.	.	.	.	8r	.	8r	.
.	.	16dJJ 16B/	.	16g'/JJ	.	.	.	.	.	.	.	.	.	.	.	.	.	.	.
=2	=2	=2	=2	=2	=2	=2	=2	=2	=2	=2	=2	=2	=2	=2	=2	=2	=2	=2	=2
8GG/	.	8e/L	.	8cc'\L	.	.	.	.	.	.	.	.	.	.	.	8r	.	8r	.
(32G\LLL	.	8d/J	.	8b'\J	.	.	.	.	.	.	.	.	.	.	.	16B/LL	.	16g\LL	.
32F#\	.	.	.	.	.	.	.	.	.	.	.	.	.	.	.	.	.	.	.
32G\	.	.	.	.	.	.	.	.	.	.	.	.	.	.	.	16B/	.	16g\	.
32A\JJJ)	.	.	.	.	.	.	.	.	.	.	.	.	.	.	.	.	.	.	.
16G'\LL	.	8r	.	8r	.	.	.	.	.	.	.	.	.	.	.	16B/	.	16g\	.
16G'\JJ	.	.	.	.	.	.	.	.	.	.	.	.	.	.	.	16B/JJ	.	16g\JJ	.
=3	=3	=3	=3	=3	=3	=3	=3	=3	=3	=3	=3	=3	=3	=3	=3	=3	=3	=3	=3
*	*	*tremolo	*	*	*	*	*	*	*	*	*	*	*	*	*	*	*	*	*
!LO:TX:a:t=P:problem:mixed beam	!	!	!	!	!	!	!	!	!	!	!	!	!	!	!	!	!	!	!
8G\L	.	16dLL 16B/	.	8gg 8b 8d/	.	.	.	.	.	.	.	.	.	.	.	8B/	.	8g\	.
.	.	16d 16B/	.	.	.	.	.	.	.	.	.	.	.	.	.	.	.	.	.
.	.	.	.	8qcc/	.	.	.	.	.	.	.	.	.	.	.	.	.	.	.
8GG/J	.	16d 16B/	.	(32b\LLL	.	.	.	.	.	.	.	.	.	.	.	8r	.	8r	.
.	.	.	.	32a\	.	.	.	.	.	.	.	.	.	.	.	.	.	.	.
.	.	16d 16B/	.	32b\	.	.	.	.	.	.	.	.	.	.	.	.	.	.	.
.	.	.	.	32cc\JJJ)	.	.	.	.	.	.	.	.	.	.	.	.	.	.	.
8r	.	16d 16B/	.	16b'\LL	.	.	.	.	.	.	.	.	.	.	.	8r	.	8r	.
.	.	16dJJ 16B/	.	16b'\JJ	.	.	.	.	.	.	.	.	.	.	.	.	.	.	.
=4	=4	=4	=4	=4	=4	=4	=4	=4	=4	=4	=4	=4	=4	=4	=4	=4	=4	=4	=4
8GG/	.	8cc'\L	.	8ee'\L	.	.	.	.	.	.	.	.	.	.	.	8r	.	8r	.
(32G\LLL	.	8b'\J	.	8dd'\J	.	.	.	.	.	.	.	.	.	.	.	16B/LL	.	16g\LL	.
32F#\	.	.	.	.	.	.	.	.	.	.	.	.	.	.	.	.	.	.	.
32G\	.	.	.	.	.	.	.	.	.	.	.	.	.	.	.	16B/	.	16g\	.
32A\JJJ)	.	.	.	.	.	.	.	.	.	.	.	.	.	.	.	.	.	.	.
16G'\LL	.	8r	.	8r	.	.	.	.	.	.	.	.	.	.	.	16B/	.	16g\	.
16G'\JJ	.	.	.	.	.	.	.	.	.	.	.	.	.	.	.	16B/JJ	.	16g\JJ	.
=5	=5	=5	=5	=5	=5	=5	=5	=5	=5	=5	=5	=5	=5	=5	=5	=5	=5	=5	=5
!LO:TX:a:t=P:problem:mixed beam	!	!	!	!	!	!LO:N:vis=00	!	!LO:N:vis=00	!	!LO:N:vis=00	!	!	!LO:N:vis=00	!	!	!	!	!	!
8G\L	.	16dLL 16B/	.	8gg 8b 8d/	.	1.r	.	1.r	.	1.r	.	.	1.r	.	.	8B/	.	8g\	.
.	.	16d 16B/	.	.	.	.	.	.	.	.	.	.	.	.	.	.	.	.	.
8GG/J	.	16d 16B/	.	32g/LLL	.	.	.	.	.	.	.	.	.	.	.	8r	.	8r	.
.	.	.	.	(32f#/	.	.	.	.	.	.	.	.	.	.	.	.	.	.	.
.	.	16d 16B/	.	32g/	.	.	.	.	.	.	.	.	.	.	.	.	.	.	.
.	.	.	.	32a/JJJ)	.	.	.	.	.	.	.	.	.	.	.	.	.	.	.
8r	.	16d 16B/	.	16g'/LL	.	.	.	.	.	.	.	.	.	.	.	8r	.	8r	.
.	.	16dJJ 16B/	.	16g'/JJ	.	.	.	.	.	.	.	.	.	.	.	.	.	.	.
*	*	*Xtremolo	*	*	*	*	*	*	*	*	*	*	*	*	*	*	*	*	*
=6	=6	=6	=6	=6	=6	=6	=6	=6	=6	=6	=6	=6	=6	=6	=6	=6	=6	=6	=6
!	!	!	!	!LO:LB:g=original	!	!	!	!	!	!	!	!	!	!	!	!	!	!	!
!LO:TX:a:t=P:problem:mixed beam	!	!LO:TX:a:t=P:problem:mixed beam	!	!	!	!	!	!	!	!	!	!	!	!	!	!	!	!	!
8GG/L	.	16g'/LL	.	16g'>/LL	.	.	.	.	.	.	.	.	.	.	.	8r	.	8r	.
.	.	16ee'\	.	16gg'>\	.	.	.	.	.	.	.	.	.	.	.	.	.	.	.
8G\	.	16dd'\	.	16ff#'>\	.	.	.	.	.	.	.	.	.	.	.	8G/	.	8g\L	.
.	.	16cc'\	.	16ee'>\	.	.	.	.	.	.	.	.	.	.	.	.	.	.	.
8G\J	.	16b'\	.	16dd'>\	.	.	.	.	.	.	.	.	.	.	.	8G/	.	8g\J	.
.	.	16a'\JJ	.	16cc\JJ	.	.	.	.	.	.	.	.	.	.	.	.	.	.	.
=7	=7	=7	=7	=7	=7	=7	=7	=7	=7	=7	=7	=7	=7	=7	=7	=7	=7	=7	=7
.	.	.	.	8qqcc/	.	.	.	.	.	.	.	.	.	.	.	.	.	.	.
8G\L	.	8g/L	.	16b\LL	.	.	.	.	.	.	.	.	.	.	.	8g/	.	8b\L	.
.	.	.	.	32a\L	.	.	.	.	.	.	.	.	.	.	.	.	.	.	.
.	.	.	.	32b\JJJ	.	.	.	.	.	.	.	.	.	.	.	.	.	.	.
8F#\	.	8d/	.	16.cc\LL	.	.	.	.	.	.	.	.	.	.	.	8d/	.	8a\	.
.	.	.	.	32a\K	.	.	.	.	.	.	.	.	.	.	.	.	.	.	.
8G\J	.	8d/J	.	16.b\	.	.	.	.	.	.	.	.	.	.	.	8B/	.	8g\J	.
.	.	.	.	32g\JJk	.	.	.	.	.	.	.	.	.	.	.	.	.	.	.
=8	=8	=8	=8	=8	=8	=8	=8	=8	=8	=8	=8	=8	=8	=8	=8	=8	=8	=8	=8
!LO:LB:g=original	!	!	!	!	!	!	!	!	!	!	!	!	!	!	!	!	!	!LO:LB:g=original	!
!LO:TX:a:t=P:problem:mixed beam	!	!	!	!LO:TX:a:t=P:problem:mixed beam	!	!	!	!	!	!	!	!	!	!	!	!	!	!	!
8D\L	.	8d/L	.	8dd\L	.	.	.	.	.	.	.	.	.	.	.	8B/	.	8d/L	.
8DD/J	.	8d/J	.	8d/J	.	.	.	.	.	.	.	.	.	.	.	8B/	.	8d/J	.
32d\LLL	.	8r	.	8r	.	.	.	.	.	.	.	.	.	.	.	8r	.	8r	.
(32c\	.	.	.	.	.	.	.	.	.	.	.	.	.	.	.	.	.	.	.
32B\	.	.	.	.	.	.	.	.	.	.	.	.	.	.	.	.	.	.	.
32A\JJJ)	.	.	.	.	.	.	.	.	.	.	.	.	.	.	.	.	.	.	.
=9	=9	=9	=9	=9	=9	=9	=9	=9	=9	=9	=9	=9	=9	=9	=9	=9	=9	=9	=9
!	!	!LO:LB:g=original	!	!	!	!	!	!	!	!	!	!	!	!	!	!LO:LB:g=original	!	!	!
!LO:TX:a:t=P:problem:mixed beam	!	!	!	!	!	!	!	!	!	!	!	!	!	!	!	!	!	!	!
*	*	*tremolo	*	*	*	*	*	*	*	*	*	*	*	*	*	*	*	*	*
8G\L	.	16dLL 16B/	.	8gg 8b 8d/	.	4G\	Sit	4d\	Sit	4g\	Sit	.	4b\	Sit	.	8B/	.	8g\	.
.	.	16d 16B/	.	.	.	.	.	.	.	.	.	.	.	.	.	.	.	.	.
.	.	.	.	8qa/	.	.	.	.	.	.	.	.	.	.	.	.	.	.	.
8GG/J	.	16d 16B/	.	32g/LLL	.	.	.	.	.	.	.	.	.	.	.	8r	.	8r	.
.	.	.	.	(32f#/	.	.	.	.	.	.	.	.	.	.	.	.	.	.	.
.	.	16d 16B/	.	32g/	.	.	.	.	.	.	.	.	.	.	.	.	.	.	.
.	.	.	.	32a/JJJ)	.	.	.	.	.	.	.	.	.	.	.	.	.	.	.
8r	.	16d 16B/	.	16g'/LL	.	8G\	laus	8d\	laus	8g\	laus	.	8b\	laus	.	8r	.	8r	.
.	.	16dJJ 16B/	.	16g'/JJ	.	.	.	.	.	.	.	.	.	.	.	.	.	.	.
=10	=10	=10	=10	=10	=10	=10	=10	=10	=10	=10	=10	=10	=10	=10	=10	=10	=10	=10	=10
8GG/	.	8e'/L	.	8cc'\L	.	8G\	ple-	8e\	ple-	8g\	ple-	.	8cc\	ple-	.	8r	.	8r	.
(32G\LLL	.	8d'/J	.	8b'\J	.	8G\	-na	8d\	-na	8g\	-na	.	8b\	-na	.	16B/LL	.	16g\LL	.
32F#\	.	.	.	.	.	.	.	.	.	.	.	.	.	.	.	.	.	.	.
32G\	.	.	.	.	.	.	.	.	.	.	.	.	.	.	.	16B/	.	16g\	.
32A\JJJ)	.	.	.	.	.	.	.	.	.	.	.	.	.	.	.	.	.	.	.
16G'\LL	.	8r	.	8r	.	8r	.	8r	.	8r	.	.	8r	.	.	16B/	.	16g\	.
16G'\JJ	.	.	.	.	.	.	.	.	.	.	.	.	.	.	.	16B/JJ	.	16g\JJ	.
=11	=11	=11	=11	=11	=11	=11	=11	=11	=11	=11	=11	=11	=11	=11	=11	=11	=11	=11	=11
!LO:TX:a:t=P:problem:mixed beam	!	!	!	!	!	!	!	!	!	!	!	!	!	!	!	!	!	!	!
8G\L	.	16dLL 16B/	.	8gg 8b 8d/	.	4G\	Sit	4B\	Sit	4g\	Sit	.	4dd\	Sit	.	8B/	.	8g\	.
.	.	16d 16B/	.	.	.	.	.	.	.	.	.	.	.	.	.	.	.	.	.
8GG/J	.	16d 16B/	.	(32g/LLL	.	.	.	.	.	.	.	.	.	.	.	8r	.	8r	.
.	.	.	.	32f#/	.	.	.	.	.	.	.	.	.	.	.	.	.	.	.
.	.	16d 16B/	.	32g/	.	.	.	.	.	.	.	.	.	.	.	.	.	.	.
.	.	.	.	32a/JJJ)	.	.	.	.	.	.	.	.	.	.	.	.	.	.	.
8r	.	16d 16B/	.	16g'/LL	.	8G\	So-	8B\	so-	8g\	--	.	8dd\	So-	.	8r	.	8r	.
.	.	16dJJ 16B/	.	16g'/JJ	.	.	.	.	.	.	.	.	.	.	.	.	.	.	.
=12	=12	=12	=12	=12	=12	=12	=12	=12	=12	=12	=12	=12	=12	=12	=12	=12	=12	=12	=12
8GG/	.	8cc\L	.	8ee'\L	.	8G\	-no-	8c\	-no-	8g\	-no-	.	8ee\	-no-	.	8r	.	8r	.
(32G\LLL	.	8b\J	.	8dd'\J	.	8G\	-ra	8B\	-ra	8g\	-ra	.	8dd\	-ra	.	16B/LL	.	16g\LL	.
32F#\	.	.	.	.	.	.	.	.	.	.	.	.	.	.	.	.	.	.	.
32G\	.	.	.	.	.	.	.	.	.	.	.	.	.	.	.	16B/	.	16g\	.
32A\JJJ)	.	.	.	.	.	.	.	.	.	.	.	.	.	.	.	.	.	.	.
16G\LL	.	8r	.	8r	.	8r	.	8r	.	8r	.	.	8r	.	.	16B/	.	16g\	.
16G\JJ	.	.	.	.	.	.	.	.	.	.	.	.	.	.	.	16B/JJ	.	16g\JJ	.
=13	=13	=13	=13	=13	=13	=13	=13	=13	=13	=13	=13	=13	=13	=13	=13	=13	=13	=13	=13
!	!	!	!	!LO:LB:g=original	!	!LO:LB:g=original	!	!LO:LB:g=original	!	!LO:LB:g=original	!	!	!LO:LB:g=original	!	!	!	!	!	!
!LO:TX:a:t=P:problem:mixed beam	!	!	!	!	!	!	!	!	!	!	!	!	!	!	!	!	!	!	!
8G\L	.	16dLL 16G/	.	8gg 8b 8d/	.	4G\	sit	4B\	Sit	4g\	Sit	.	4dd\	Sit	.	8B/	.	8g`\	.
.	.	16d 16G/	.	.	.	.	.	.	.	.	.	.	.	.	.	.	.	.	.
8BB/	.	16d 16G/	.	32g/LLL	.	.	.	.	.	.	.	.	.	.	.	8r	.	8r	.
.	.	.	.	(32f#/	.	.	.	.	.	.	.	.	.	.	.	.	.	.	.
.	.	16d 16G/	.	32g/	.	.	.	.	.	.	.	.	.	.	.	.	.	.	.
.	.	.	.	32a/JJJ)	.	.	.	.	.	.	.	.	.	.	.	.	.	.	.
8BB/J	.	16d 16G/	.	16g'/LL	.	8G\	ju-	8B\	ju-	8g\	ju-	.	8dd\	ju-	.	8r	.	8r	.
.	.	16dJJ 16G/	.	16g'/JJ	.	.	.	.	.	.	.	.	.	.	.	.	.	.	.
=14	=14	=14	=14	=14	=14	=14	=14	=14	=14	=14	=14	=14	=14	=14	=14	=14	=14	=14	=14
8C/L	.	16eLL 16G/	.	8gg 8cc 8e/	.	4c\	-cun-	4c\	-cun-	4g\	-cun-	.	4ee\	-cun-	.	8G/	.	8g`\	.
.	.	16e 16G/	.	.	.	.	.	.	.	.	.	.	.	.	.	.	.	.	.
8C/	.	16e 16G/	.	32g/LLL	.	.	.	.	.	.	.	.	.	.	.	8r	.	8r	.
.	.	.	.	(32f#/	.	.	.	.	.	.	.	.	.	.	.	.	.	.	.
.	.	16e 16G/	.	32g/	.	.	.	.	.	.	.	.	.	.	.	.	.	.	.
.	.	.	.	32a/JJJ)	.	.	.	.	.	.	.	.	.	.	.	.	.	.	.
8C/J	.	16e 16G/	.	16g'/LL	.	8c\	-da	8c\	-da	8g\	-da	.	8ee\	-da	.	8r	.	8r	.
.	.	16eJJ 16G/	.	16g'/JJ	.	.	.	.	.	.	.	.	.	.	.	.	.	.	.
=15	=15	=15	=15	=15	=15	=15	=15	=15	=15	=15	=15	=15	=15	=15	=15	=15	=15	=15	=15
8BB/L	.	16dLL 16G/	.	8gg 8b 8d/	.	4G\	Sit	4B\	Sit	4g\	Sit	.	4dd\	Sit	.	8G/	.	8g`\	.
.	.	16d 16G/	.	.	.	.	.	.	.	.	.	.	.	.	.	.	.	.	.
8BB/	.	16d 16G/	.	32g/LLL	.	.	.	.	.	.	.	.	.	.	.	8r	.	8r	.
.	.	.	.	(32f#/	.	.	.	.	.	.	.	.	.	.	.	.	.	.	.
.	.	16d 16G/	.	32g/	.	.	.	.	.	.	.	.	.	.	.	.	.	.	.
.	.	.	.	32a/JJJ)	.	.	.	.	.	.	.	.	.	.	.	.	.	.	.
8BB/J	.	16d 16G/	.	16g'/LL	.	8G\	de-	8B\	de-	8g\	de-	.	8dd\	de-	.	8r	.	8r	.
.	.	16dJJ 16G/	.	16g'/JJ	.	.	.	.	.	.	.	.	.	.	.	.	.	.	.
=16	=16	=16	=16	=16	=16	=16	=16	=16	=16	=16	=16	=16	=16	=16	=16	=16	=16	=16	=16
!LO:LB:g=original	!	!	!	!	!	!	!	!	!	!	!	!	!	!	!	!	!	!	!
8C/L	.	16eLL 16G/	.	8gg 8cc 8e/	.	4c\	-co-	4c\	-co-	4g\	-co-	.	4ee\	-co-	.	8G/	.	8g`\	.
.	.	16e 16G/	.	.	.	.	.	.	.	.	.	.	.	.	.	.	.	.	.
8C/	.	16e 16G/	.	32g/LLL	.	.	.	.	.	.	.	.	.	.	.	8r	.	8r	.
.	.	.	.	(32f#/	.	.	.	.	.	.	.	.	.	.	.	.	.	.	.
.	.	16e 16G/	.	32g/	.	.	.	.	.	.	.	.	.	.	.	.	.	.	.
.	.	.	.	32a/JJJ)	.	.	.	.	.	.	.	.	.	.	.	.	.	.	.
8C/J	.	16e 16G/	.	16g'/LL	.	8c\	-ra	8c\	-ra	8g\	-ra	.	8ee\	-ra	.	8r	.	8r	.
.	.	16eJJ 16G/	.	16g'/JJ	.	.	.	.	.	.	.	.	.	.	.	.	.	.	.
=17	=17	=17	=17	=17	=17	=17	=17	=17	=17	=17	=17	=17	=17	=17	=17	=17	=17	=17	=17
!	!	!	!	!	!	!	!	!	!	!	!	!	!	!	!	!	!	!LO:LB:g=original	!
8BB/L	.	16d/LL	.	16.ggLL 16.b 16.d/	.	8G\	men-	8B\	men-	8g\	men-	.	8dd\	men-	.	8b\	.	8dd\L	.
.	.	16d/	.	.	.	.	.	.	.	.	.	.	.	.	.	.	.	.	.
.	.	.	.	32dd/JJk	.	.	.	.	.	.	.	.	.	.	.	.	.	.	.
8AA/	.	16d/	.	16.cc/LL	.	8F#\	-tis	8A\	-tis	8f#\	-tis	.	8cc\	-tis	.	8a\	.	8cc\	.
.	.	16d/	.	.	.	.	.	.	.	.	.	.	.	.	.	.	.	.	.
.	.	.	.	32a/	.	.	.	.	.	.	.	.	.	.	.	.	.	.	.
!	!	!	!	!	!	!	!	!	!	!	!	!	!LO:SIC:s=16.dd:v	!	!	!	!	!	!
!	!	!	!	!	!	!	!	!	!	!	!	!	!LO:N:vis=8.	!	!	!	!	!	!
8GG/J	.	16d/	.	16.b/	.	16.G\	ju-	16.d\	ju-	16.g\	ju-	.	16.b\	ju-	.	8g\	.	8b\J	.
.	.	16d/JJ	.	.	.	.	.	.	.	.	.	.	.	.	.	.	.	.	.
!	!	!	!	!	!	!	!	!	!	!	!	!	!LO:N:vis=16	!	!	!	!	!	!
.	.	.	.	32g/JJk	.	32G\	-bi-	32d\	-bi-	32g\	-bi-	.	32b\	-bi-	.	.	.	.	.
*	*	*Xtremolo	*	*	*	*	*	*	*	*	*	*	*	*	*	*	*	*	*
=18	=18	=18	=18	=18	=18	=18	=18	=18	=18	=18	=18	=18	=18	=18	=18	=18	=18	=18	=18
!	!	!	!	!LO:LB:g=original	!	!LO:LB:g=original	!	!LO:LB:g=original	!	!LO:LB:g=original	!	!	!LO:LB:g=original	!	!	!	!	!	!
!LO:TX:a:t=P:problem:mixed beam	!LO:DY:b:t=po&colon;	!	!	!LO:TX:a:t=P:problem:mixed beam	!	!	!	!	!	!	!	!	!	!	!	!	!	!LO:TX:a:t=t	!
16D/LL	p	8d/L	.	8dd\L	.	16.D\	-la-	16.d\	-la-	16.g\	-la-	.	16.b\	-la-	.	8g\	.	8b\L	.
16d\	.	.	.	.	.	.	.	.	.	.	.	.	.	.	.	.	.	.	.
.	.	.	.	.	.	32D\	-ti-	32d\	-ti-	32f#\	-ti-	.	32a\	-ti-	.	.	.	.	.
16d\	.	8d/J	.	8d/J	.	8D\J	-o	8d\	-o	8f#\	-o	.	8a\	-o	.	8d/	.	8a\J	.
16d\	.	.	.	.	.	.	.	.	.	.	.	.	.	.	.	.	.	.	.
16d\	.	8r	.	8r	.	8r	.	8r	.	8r	.	.	8r	.	.	8r	.	8r	.
16d\JJ	.	.	.	.	.	.	.	.	.	.	.	.	.	.	.	.	.	.	.
=19	=19	=19	=19	=19	=19	=19	=19	=19	=19	=19	=19	=19	=19	=19	=19	=19	=19	=19	=19
!	!	!	!	!	!	!	!	!	!	!	!	!	!	!	!	!LO:TX:a:t=13.	!	!	!
!	!	!	!LO:DY:b	!	!LO:DY:b:t=pia.	!LO:N:vis=00	!	!LO:N:vis=00	!	!	!	!LO:DY:t=pia.	!	!	!LO:DY:t=pia.	!LO:N:vis=00	!	!LO:N:vis=00	!
*tremolo	*	*	*	*	*	*	*	*	*	*	*	*	*	*	*	*	*	*	*
16d\LL	.	4.f#/	p	4.a/	p	1.r	.	1.r	.	4f#\	Sit	p	4a\	Sit	p	1.r	.	1.r	.
16d\	.	.	.	.	.	.	.	.	.	.	.	.	.	.	.	.	.	.	.
16d\	.	.	.	.	.	.	.	.	.	.	.	.	.	.	.	.	.	.	.
16d\	.	.	.	.	.	.	.	.	.	.	.	.	.	.	.	.	.	.	.
16d\	.	.	.	.	.	.	.	.	.	8f#\	Laus	.	8a\	laus	.	.	.	.	.
16d\JJ	.	.	.	.	.	.	.	.	.	.	.	.	.	.	.	.	.	.	.
=20	=20	=20	=20	=20	=20	=20	=20	=20	=20	=20	=20	=20	=20	=20	=20	=20	=20	=20	=20
16d\LL	.	(8f#/L	.	(8a/L	.	.	.	.	.	8f#\L	ple-	.	8a\L	ple-	.	.	.	.	.
16d\	.	.	.	.	.	.	.	.	.	.	.	.	.	.	.	.	.	.	.
16d\	.	8g/	.	8b/	.	.	.	.	.	8g\	.	.	(8b\	.	.	.	.	.	.
16d\	.	.	.	.	.	.	.	.	.	.	.	.	.	.	.	.	.	.	.
16d\	.	8a/J)	.	8cc/J)	.	.	.	.	.	8a\J	.	.	8cc\J)	.	.	.	.	.	.
16d\JJ	.	.	.	.	.	.	.	.	.	.	.	.	.	.	.	.	.	.	.
=21	=21	=21	=21	=21	=21	=21	=21	=21	=21	=21	=21	=21	=21	=21	=21	=21	=21	=21	=21
16d\LL	.	4g/	.	4b\	.	.	.	.	.	4g\	-na	.	4b\	-na	.	.	.	.	.
16d\	.	.	.	.	.	.	.	.	.	.	.	.	.	.	.	.	.	.	.
16d\	.	.	.	.	.	.	.	.	.	.	.	.	.	.	.	.	.	.	.
16d\	.	.	.	.	.	.	.	.	.	.	.	.	.	.	.	.	.	.	.
16d\	.	8r	.	8r	.	.	.	.	.	8r	.	.	8r	.	.	.	.	.	.
16d\JJ	.	.	.	.	.	.	.	.	.	.	.	.	.	.	.	.	.	.	.
=22	=22	=22	=22	=22	=22	=22	=22	=22	=22	=22	=22	=22	=22	=22	=22	=22	=22	=22	=22
16d#X\LL	.	4.a/	.	4.cc\	.	.	.	.	.	4a\	Sit	.	4cc\	Sit	.	.	.	.	.
16d#\	.	.	.	.	.	.	.	.	.	.	.	.	.	.	.	.	.	.	.
16d#\	.	.	.	.	.	.	.	.	.	.	.	.	.	.	.	.	.	.	.
16d#\	.	.	.	.	.	.	.	.	.	.	.	.	.	.	.	.	.	.	.
16d#\	.	.	.	.	.	.	.	.	.	8a\	So-	.	8cc\	So-	.	.	.	.	.
16d#\JJ	.	.	.	.	.	.	.	.	.	.	.	.	.	.	.	.	.	.	.
=23	=23	=23	=23	=23	=23	=23	=23	=23	=23	=23	=23	=23	=23	=23	=23	=23	=23	=23	=23
!	!	!LO:LB:g=original	!	!	!	!	!	!	!	!	!	!	!	!	!	!	!	!	!
!	!	!	!	!	!	!LO:N:vis=00	!	!LO:N:vis=00	!	!	!	!	!	!	!	!LO:N:vis=00	!	!LO:N:vis=00	!
16e\LL	.	(8a/L	.	(8cc\L	.	1.r	.	1.r	.	(8a\L	-no-	.	8cc\L	-no-	.	1.r	.	1.r	.
16e\	.	.	.	.	.	.	.	.	.	.	.	.	.	.	.	.	.	.	.
16e\	.	8g/)	.	8b\	.	.	.	.	.	8g\	.	.	(8b\	.	.	.	.	.	.
16e\	.	.	.	.	.	.	.	.	.	.	.	.	.	.	.	.	.	.	.
16e\	.	8f#/J	.	8a\J)	.	.	.	.	.	8f#\J)	.	.	8a\J)	.	.	.	.	.	.
16e\JJ	.	.	.	.	.	.	.	.	.	.	.	.	.	.	.	.	.	.	.
*Xtremolo	*	*	*	*	*	*	*	*	*	*	*	*	*	*	*	*	*	*	*
=24	=24	=24	=24	=24	=24	=24	=24	=24	=24	=24	=24	=24	=24	=24	=24	=24	=24	=24	=24
!	!	!	!	!	!	!	!	!	!	!	!	!	!LO:LB:g=original	!	!	!	!	!	!
4e\	.	4e/	.	4g/	.	.	.	.	.	4e\	-ra	.	4g\	-ra	.	.	.	.	.
8r	.	8r	.	8r	.	.	.	.	.	8r	.	.	8r	.	.	.	.	.	.
=25	=25	=25	=25	=25	=25	=25	=25	=25	=25	=25	=25	=25	=25	=25	=25	=25	=25	=25	=25
!	!	!	!	!	!	!	!	!	!	!LO:LB:g=original	!	!	!	!	!	!	!	!	!
*	*	*tremolo	*	*	*	*	*	*	*	*	*	*	*	*	*	*	*	*	*
4.E\	.	16e/LL	.	4.ee\	.	.	.	.	.	4.r	.	.	4ee\	Sit	.	.	.	.	.
.	.	16e/	.	.	.	.	.	.	.	.	.	.	.	.	.	.	.	.	.
.	.	16e/	.	.	.	.	.	.	.	.	.	.	.	.	.	.	.	.	.
.	.	16e/	.	.	.	.	.	.	.	.	.	.	.	.	.	.	.	.	.
.	.	16e/	.	.	.	.	.	.	.	.	.	.	8ee\	ju-	.	.	.	.	.
.	.	16e/JJ	.	.	.	.	.	.	.	.	.	.	.	.	.	.	.	.	.
=26	=26	=26	=26	=26	=26	=26	=26	=26	=26	=26	=26	=26	=26	=26	=26	=26	=26	=26	=26
!LO:TX:a:t=P:problem:takt zapisany repetycją dopisaną ołówkiem	!	!	!	!	!	!	!	!	!	!	!	!	!	!	!	!	!	!	!
4.E\yy	.	16e/LL	.	(8ee\L	.	.	.	.	.	4e\	Sit	.	8ee\L	-cun-	.	.	.	.	.
.	.	16e/	.	.	.	.	.	.	.	.	.	.	.	.	.	.	.	.	.
.	.	16e/	.	8gg\)	.	.	.	.	.	.	.	.	8gg\J	.	.	.	.	.	.
.	.	16e/	.	.	.	.	.	.	.	.	.	.	.	.	.	.	.	.	.
.	.	16e/	.	8ff#\J	.	.	.	.	.	8e\	ju	.	8ff#\	-da	.	.	.	.	.
.	.	16e/JJ	.	.	.	.	.	.	.	.	.	.	.	.	.	.	.	.	.
=27	=27	=27	=27	=27	=27	=27	=27	=27	=27	=27	=27	=27	=27	=27	=27	=27	=27	=27	=27
!	!	!	!	!	!	!LO:N:vis=00	!	!LO:N:vis=00	!	!	!	!	!	!	!	!LO:N:vis=00	!	!LO:N:vis=00	!
(8E\L	.	16e/LL	.	(8ee\L	.	1.r	.	1.r	.	8e\L	cun-	.	4ee\	Sit	.	1.r	.	1.r	.
.	.	16e/	.	.	.	.	.	.	.	.	.	.	.	.	.	.	.	.	.
8G\)	.	16e/	.	8bb\)	.	.	.	.	.	8b\J	.	.	.	.	.	.	.	.	.
.	.	16e/	.	.	.	.	.	.	.	.	.	.	.	.	.	.	.	.	.
8F#`\J	.	16e/	.	8aa\J	.	.	.	.	.	8a\	-da	.	8ee\	de-	.	.	.	.	.
.	.	16e/JJ	.	.	.	.	.	.	.	.	.	.	.	.	.	.	.	.	.
=28	=28	=28	=28	=28	=28	=28	=28	=28	=28	=28	=28	=28	=28	=28	=28	=28	=28	=28	=28
!	!	!	!	!LO:TX:a:t=P:problem:mixed beam	!	!	!	!	!	!	!	!	!	!	!	!	!	!	!
(8E\L	.	16e/LL	.	(<8gg\L	.	.	.	.	.	4g\	sit	.	8ee\L	.	.	.	.	.	.
.	.	16e/	.	.	.	.	.	.	.	.	.	.	.	.	.	.	.	.	.
8B\)	.	16e/	.	8g/	.	.	.	.	.	.	.	.	8bb\J	.	.	.	.	.	.
.	.	16e/	.	.	.	.	.	.	.	.	.	.	.	.	.	.	.	.	.
8A`\J	.	16e/	.	8f#/J)	.	.	.	.	.	8f#\	de-	.	8aa\	-ra	.	.	.	.	.
.	.	16e/JJ	.	.	.	.	.	.	.	.	.	.	.	.	.	.	.	.	.
=29	=29	=29	=29	=29	=29	=29	=29	=29	=29	=29	=29	=29	=29	=29	=29	=29	=29	=29	=29
!LO:LB:g=original	!	!	!	!	!	!	!	!	!	!	!	!	!	!	!	!	!	!	!
8G`\L	.	16e/LL	.	(>8e/L	.	.	.	.	.	8e\L	-co-	.	4gg\	men-	.	.	.	.	.
.	.	16e/	.	.	.	.	.	.	.	.	.	.	.	.	.	.	.	.	.
(8G\	.	16e/	.	8bb\)	.	.	.	.	.	8b\J	.	.	.	.	.	.	.	.	.
.	.	16e/	.	.	.	.	.	.	.	.	.	.	.	.	.	.	.	.	.
8F#\J)	.	16e/	.	8aa\J	.	.	.	.	.	8a\	-ra	.	8ff#\	-tis	.	.	.	.	.
.	.	16e/JJ	.	.	.	.	.	.	.	.	.	.	.	.	.	.	.	.	.
=30	=30	=30	=30	=30	=30	=30	=30	=30	=30	=30	=30	=30	=30	=30	=30	=30	=30	=30	=30
(8E\L	.	16e/LL	.	(8gg\L	.	.	.	.	.	8g\	men-	.	4ee\	ju-	.	.	.	.	.
.	.	16e/	.	.	.	.	.	.	.	.	.	.	.	.	.	.	.	.	.
8G\	.	16e/	.	8ee\	.	.	.	.	.	8b\	-tis	.	.	.	.	.	.	.	.
.	.	16e/	.	.	.	.	.	.	.	.	.	.	.	.	.	.	.	.	.
8G#X\J)	.	16e/	.	8dd\J)	.	.	.	.	.	16.b\	ju-	.	8dd\	-bi-	.	.	.	.	.
.	.	16e/JJ	.	.	.	.	.	.	.	.	.	.	.	.	.	.	.	.	.
.	.	.	.	.	.	.	.	.	.	32b\	-bi-	.	.	.	.	.	.	.	.
=31	=31	=31	=31	=31	=31	=31	=31	=31	=31	=31	=31	=31	=31	=31	=31	=31	=31	=31	=31
!	!	!	!	!	!	!	!	!	!	!LO:LB:g=original	!	!	!LO:LB:g=original	!	!	!	!	!	!
.	.	.	.	8qqdd/	.	.	.	.	.	.	.	.	.	.	.	.	.	.	.
!LO:TX:a:t=P:problem:mixed beam	!	!	!	!	!LO:DY:b:t=pia.	!	!	!	!	!	!	!	!	!	!	!LO:N:vis=1	!	!LO:N:vis=1	!
8A\L	.	16a/LL	.	16cc#X'\LL	p	8r	.	8r	.	16.a\	-la-	.	16.dd\	-la-	.	4.r	.	4.r	.
.	.	16a/	.	16aa'\	.	.	.	.	.	.	.	.	.	.	.	.	.	.	.
.	.	.	.	.	.	.	.	.	.	32a\	-ti-	.	32cc\	-ti-	.	.	.	.	.
8AA/J	.	16a/	.	16aa'\	.	8A\	Sit	8A\	Sit	8a\	-o	.	8cc\	-o	.	.	.	.	.
.	.	16a/	.	16aa'\	.	.	.	.	.	.	.	.	.	.	.	.	.	.	.
8r	.	16a/	.	16aa'\	.	8A\	laus	8A\	laus	8r	.	.	8r	.	.	.	.	.	.
!	!	!	!	!	!	!	!	!	!	!	!	!	!	!	!	!LO:TX:b:t=VS&colon;	!	!LO:TX:b:t=V&colon; S&colon;	!
.	.	16a/JJ	.	16aa'\JJ	.	.	.	.	.	.	.	.	.	.	.	.	.	.	.
=32	=32	=32	=32	=32	=32	=32	=32	=32	=32	=32	=32	=32	=32	=32	=32	=32	=32	=32	=32
!	!	!	!	!	!	!	!	!	!	!	!	!	!	!	!	!LO:PB:g=original	!	!LO:PB:g=original	!
*	*	*	*	*tremolo	*	*	*	*	*	*	*	*	*	*	*	*	*	*	*
8r	.	16a/LL	.	16aa\LL	.	8A\	ple-	8d\	ple-	8r	.	.	8r	.	.	8r	.	8r	.
.	.	16a/	.	16aa\	.	.	.	.	.	.	.	.	.	.	.	.	.	.	.
8r	.	16a/	.	16aa\	.	8A\	-na	8c#X\	-na	8cc#X\	Sit	.	8ee\	Sit	.	8r	.	8r	.
.	.	16a/	.	16aa\	.	.	.	.	.	.	.	.	.	.	.	.	.	.	.
!	!LO:DY:b:	!	!	!	!	!	!	!	!	!	!	!	!	!	!	!	!LO:DY:t=po&colon;	!	!
8A\	p	16a/	.	16aa\	.	8r	.	8r	.	8cc#\	laus	.	8ee\	laus	.	8a\	p	8a\	p
.	.	16a/JJ	.	16aa\JJ	.	.	.	.	.	.	.	.	.	.	.	.	.	.	.
=33	=33	=33	=33	=33	=33	=33	=33	=33	=33	=33	=33	=33	=33	=33	=33	=33	=33	=33	=33
8d\L	.	16a/LL	.	16aa\LL	.	8r	.	8r	.	8dd\	ple-	.	8ff#\	ple-	.	8d/	.	8a\L	.
.	.	16a/	.	16aa\	.	.	.	.	.	.	.	.	.	.	.	.	.	.	.
8A\J	.	16a/	.	16aa\	.	8c#X\	Sit	8e\	Sit	8cc#X\	-na	.	8ee\	-na	.	8a\	.	8a\J	.
.	.	16a/	.	16aa\	.	.	.	.	.	.	.	.	.	.	.	.	.	.	.
8r	.	16a/	.	16aa\	.	8c#\	So-	8e\	So-	8r	.	.	8r	.	.	8r	.	8r	.
.	.	16a/JJ	.	16aa\JJ	.	.	.	.	.	.	.	.	.	.	.	.	.	.	.
=34	=34	=34	=34	=34	=34	=34	=34	=34	=34	=34	=34	=34	=34	=34	=34	=34	=34	=34	=34
!	!	!	!	!	!	!LO:LB:g=original	!	!LO:LB:g=original	!	!	!	!	!	!	!	!	!	!	!
8r	.	16a/LL	.	16aa\LL	.	8d\	-no-	8f#\	-no-	8r	.	.	8r	.	.	8r	.	8r	.
.	.	16a/	.	16aa\	.	.	.	.	.	.	.	.	.	.	.	.	.	.	.
8r	.	16a/	.	16aa\	.	8c#X\	-ra	8e\	-ra	8cc#X\	Sit	.	8ee\	Sit	.	8r	.	8r	.
.	.	16a/	.	16aa\	.	.	.	.	.	.	.	.	.	.	.	.	.	.	.
8A\	.	16a/	.	16aa\	.	8r	.	8r	.	8cc#\	So-	.	8ee\	So-	.	8a\	.	8a\	.
.	.	16a/JJ	.	16aa\JJ	.	.	.	.	.	.	.	.	.	.	.	.	.	.	.
=35	=35	=35	=35	=35	=35	=35	=35	=35	=35	=35	=35	=35	=35	=35	=35	=35	=35	=35	=35
8d\L	.	16a/LL	.	16aa\LL	.	8r	.	8r	.	8dd\	-no-	.	8ff#\	-no-	.	8d/	.	8a\L	.
.	.	16a/	.	16aa\	.	.	.	.	.	.	.	.	.	.	.	.	.	.	.
8A\J	.	16a/	.	16aa\	.	8c#X\	Sit	8e\	Sit	8cc#X\	-ra	.	8ee\	-ra	.	8a\	.	8a\J	.
.	.	16a/	.	16aa\	.	.	.	.	.	.	.	.	.	.	.	.	.	.	.
8r	.	16a/	.	16aa\	.	8c#\	de-	8e\	de-	8r	.	.	8r	.	.	8r	.	8r	.
.	.	16a/JJ	.	16aa\JJ	.	.	.	.	.	.	.	.	.	.	.	.	.	.	.
=36	=36	=36	=36	=36	=36	=36	=36	=36	=36	=36	=36	=36	=36	=36	=36	=36	=36	=36	=36
!	!	!	!	!	!	!	!	!	!	!LO:LB:g=original	!	!	!	!	!	!	!	!	!
8r	.	16a/LL	.	16aa\LL	.	8d\	-co-	8f#\	-co-	8r	.	.	8r	.	.	8r	.	8r	.
.	.	16a/	.	16aa\	.	.	.	.	.	.	.	.	.	.	.	.	.	.	.
8r	.	16a/	.	16aa\	.	8c#X\	-ra	8e\	-ra	8cc#X\	Men-	.	8gg\	men-	.	8r	.	8r	.
.	.	16a/	.	16aa\	.	.	.	.	.	.	.	.	.	.	.	.	.	.	.
!	!LO:DY:b	!	!	!	!	!	!	!	!	!	!	!	!	!	!	!	!	!	!
8A\	f	16a/	.	16aa\	.	8r	.	8r	.	8cc#\	-tis	.	8gg\	-tis	.	8a\	.	8a\	.
.	.	16a/JJ	.	16aa\JJ	.	.	.	.	.	.	.	.	.	.	.	.	.	.	.
*	*	*	*	*Xtremolo	*	*	*	*	*	*	*	*	*	*	*	*	*	*	*
=37	=37	=37	=37	=37	=37	=37	=37	=37	=37	=37	=37	=37	=37	=37	=37	=37	=37	=37	=37
!	!	!LO:LB:g=original	!	!	!	!	!	!	!	!	!	!	!LO:LB:g=original	!	!	!	!	!	!
!	!	!	!LO:DY:b:t=for&colon;	!	!LO:DY:b:t=for&colon;	!	!	!	!	!	!	!	!	!	!	!	!	!	!
8d\L	.	16aLL 16d/	f	(32aa\LLL	f	8r	.	8r	.	4dd\	ju-	.	4ff#\	ju-	.	4.d/	f	4.d/	f
.	.	.	.	32bb\	.	.	.	.	.	.	.	.	.	.	.	.	.	.	.
.	.	16a 16d/	.	32aa\	.	.	.	.	.	.	.	.	.	.	.	.	.	.	.
.	.	.	.	32gg\JJJ)	.	.	.	.	.	.	.	.	.	.	.	.	.	.	.
8F#\	.	16a 16d/	.	32ff#\LLL	.	8d\	men-	8d\	men-	.	.	.	.	.	.	.	.	.	.
.	.	.	.	(32gg\	.	.	.	.	.	.	.	.	.	.	.	.	.	.	.
.	.	16a 16d/	.	32ff#\	.	.	.	.	.	.	.	.	.	.	.	.	.	.	.
.	.	.	.	32ee\JJJ)	.	.	.	.	.	.	.	.	.	.	.	.	.	.	.
8F#\J	.	16a 16d/	.	(32dd\LLL	.	8cn\	-tis	8d\	-tis	8a\	-bi-	.	8ff#\	-bi-	.	.	.	.	.
.	.	.	.	32ee\	.	.	.	.	.	.	.	.	.	.	.	.	.	.	.
.	.	16aJJ 16d/	.	32dd\)	.	.	.	.	.	.	.	.	.	.	.	.	.	.	.
.	.	.	.	32ccn\JJJ	.	.	.	.	.	.	.	.	.	.	.	.	.	.	.
=38	=38	=38	=38	=38	=38	=38	=38	=38	=38	=38	=38	=38	=38	=38	=38	=38	=38	=38	=38
!LO:LB:g=original	!	!	!	!LO:LB:g=original	!	!	!	!	!	!	!	!	!	!	!	!	!	!	!
8G\L	.	16bLL 16d/	.	(32b/LLL	.	4B\	ju-	4d\	ju-	4.b\	-la-	.	4.gg\	-la-	.	4.d/	.	4.dd\	.
.	.	.	.	32cc/	.	.	.	.	.	.	.	.	.	.	.	.	.	.	.
.	.	16b 16d/	.	32b/	.	.	.	.	.	.	.	.	.	.	.	.	.	.	.
.	.	.	.	32a/JJJ)	.	.	.	.	.	.	.	.	.	.	.	.	.	.	.
8G\	.	16b 16d/	.	32g/LLL	.	.	.	.	.	.	.	.	.	.	.	.	.	.	.
.	.	.	.	(32a/	.	.	.	.	.	.	.	.	.	.	.	.	.	.	.
.	.	16b 16d/	.	32g/	.	.	.	.	.	.	.	.	.	.	.	.	.	.	.
.	.	.	.	32f#/JJJ)	.	.	.	.	.	.	.	.	.	.	.	.	.	.	.
8G\J	.	16b 16d/	.	(32e/LLL	.	8G\	-bi-	8d\	-bi-	.	.	.	.	.	.	.	.	.	.
.	.	.	.	32f#/	.	.	.	.	.	.	.	.	.	.	.	.	.	.	.
.	.	16bJJ 16d/	.	32e/	.	.	.	.	.	.	.	.	.	.	.	.	.	.	.
.	.	.	.	32d/JJJ)	.	.	.	.	.	.	.	.	.	.	.	.	.	.	.
=39	=39	=39	=39	=39	=39	=39	=39	=39	=39	=39	=39	=39	=39	=39	=39	=39	=39	=39	=39
!	!	!	!	!	!	!	!	!LO:LB:g=original	!	!	!	!	!	!	!	!	!	!	!
*	*	*	*	*	*	*	*	*	*	*	*	*	*	*	*	*2\right	*	*	*
8A\L	.	16cc#XLL 16e/	.	16c#X/LL	.	4.A\	-la-	4.c#X\	-la-	4.a\	.	.	4.ee\	.	.	4.a\	.	4.cc#X\	.
.	.	16cc# 16e/	.	16e/	.	.	.	.	.	.	.	.	.	.	.	.	.	.	.
8A\	.	16cc# 16e/	.	16a/	.	.	.	.	.	.	.	.	.	.	.	.	.	.	.
.	.	16cc# 16e/	.	16cc#/	.	.	.	.	.	.	.	.	.	.	.	.	.	.	.
8C#X\J	.	16cc# 16e/	.	16ee/	.	.	.	.	.	.	.	.	.	.	.	.	.	.	.
.	.	16cc#JJ 16e/	.	16gg/JJ	.	.	.	.	.	.	.	.	.	.	.	.	.	.	.
=40	=40	=40	=40	=40	=40	=40	=40	=40	=40	=40	=40	=40	=40	=40	=40	=40	=40	=40	=40
!	!	!	!	!	!	!LO:LB:g=original	!	!	!	!	!	!	!	!	!	!	!	!	!
8D\L	.	16dd\LL	.	16ff#\LL	.	4.A\	.	4.d\	.	4.a\	.	.	4.ff#\	.	.	4d/	.	4dd\	.
.	.	16dd\	.	16dd\	.	.	.	.	.	.	.	.	.	.	.	.	.	.	.
8D\	.	16dd\	.	16ff#\	.	.	.	.	.	.	.	.	.	.	.	.	.	.	.
.	.	16dd\	.	16aa\	.	.	.	.	.	.	.	.	.	.	.	.	.	.	.
8F#\J	.	16dd\	.	16.ddd\	.	.	.	.	.	.	.	.	.	.	.	8d/	.	8dd\	.
.	.	16dd\JJ	.	.	.	.	.	.	.	.	.	.	.	.	.	.	.	.	.
.	.	.	.	32aa\JJk	.	.	.	.	.	.	.	.	.	.	.	.	.	.	.
*	*	*Xtremolo	*	*	*	*	*	*	*	*	*	*	*	*	*	*	*	*	*
=41	=41	=41	=41	=41	=41	=41	=41	=41	=41	=41	=41	=41	=41	=41	=41	=41	=41	=41	=41
.	.	.	.	8qqaa/	.	.	.	.	.	.	.	.	.	.	.	.	.	.	.
!LO:TX:a:t=P:problem:mixed beam	!	!	!	!	!	!	!	!	!	!	!	!	!	!	!	!	!	!	!
8G\L	.	16dd\LL	.	8gg\L	.	8G\	.	8e\L	.	8b\	.	.	8gg\L	.	.	8d/	.	8dd\L	.
.	.	16dd\	.	.	.	.	.	.	.	.	.	.	.	.	.	.	.	.	.
8A\	.	16dd\	.	8ff#\	.	8.A\L	.	8d\J	.	8.a\L	.	.	8ff#\	.	.	8a\	.	8dd\	.
.	.	16dd\	.	.	.	.	.	.	.	.	.	.	.	.	.	.	.	.	.
8AA/J	.	16cc#X\	.	8ee\J	.	.	.	8c#X\	-ti-	.	.	.	8ee\J	-ti-	.	8a\	.	8cc#X\J	.
.	.	16cc#\JJ	.	.	.	16A\Jk	-ti-	.	.	16a\Jk	-ti-	.	.	.	.	.	.	.	.
=42	=42	=42	=42	=42	=42	=42	=42	=42	=42	=42	=42	=42	=42	=42	=42	=42	=42	=42	=42
!	!	!	!	!	!	!	!	!	!	!	!	!	!	!	!	!LO:LB:g=original	!	!	!
8D\L	.	8dd\	.	8dd\	.	4D\	-o	8d\	-o	8a\	-o.	.	8dd\	-o	.	8a\	.	8dd\	.
8D\	.	(32ff#\LLL	.	(32ff#\LLL	.	.	.	8r	.	8r	.	.	8r	.	.	8r	.	8r	.
.	.	32gg\	.	32gg\	.	.	.	.	.	.	.	.	.	.	.	.	.	.	.
.	.	32ff#\	.	32ff#\)	.	.	.	.	.	.	.	.	.	.	.	.	.	.	.
.	.	32ee\JJJ)	.	32ee\JJJ	.	.	.	.	.	.	.	.	.	.	.	.	.	.	.
8F#\J	.	(32dd\LLL	.	(32dd\LLL	.	8r	.	8r	.	8r	.	.	8r	.	.	8r	.	8r	.
.	.	32ee\	.	32ee\	.	.	.	.	.	.	.	.	.	.	.	.	.	.	.
.	.	32dd\	.	32dd\	.	.	.	.	.	.	.	.	.	.	.	.	.	.	.
.	.	32cc\JJJ)	.	32cc\JJJ)	.	.	.	.	.	.	.	.	.	.	.	.	.	.	.
=43	=43	=43	=43	=43	=43	=43	=43	=43	=43	=43	=43	=43	=43	=43	=43	=43	=43	=43	=43
!	!	!	!	!LO:LB:g=original	!	!	!	!	!	!	!	!	!	!	!	!	!	!	!
!	!	!	!	!	!	!	!	!	!	!LO:TX:b:t=17.:problem:dopisane ołówkiem	!	!	!	!	!	!	!	!	!
!	!	!	!	!	!	!LO:N:vis=00	!	!LO:N:vis=00	!	!LO:N:vis=00	!	!	!LO:N:vis=00	!	!	!LO:N:vis=1	!	!	!
8G\L	.	(32b\LLL	.	32b\LLL	.	1.r	.	1.r	.	1.r	.	.	1.r	.	.	4.r	.	4.r	.
.	.	32cc\	.	(32cc\	.	.	.	.	.	.	.	.	.	.	.	.	.	.	.
.	.	32b\	.	32b\	.	.	.	.	.	.	.	.	.	.	.	.	.	.	.
.	.	32a\JJJ)	.	32a\JJJ)	.	.	.	.	.	.	.	.	.	.	.	.	.	.	.
8G\	.	(32g/LLL	.	32g/LLL	.	.	.	.	.	.	.	.	.	.	.	.	.	.	.
.	.	32a/	.	(32a/	.	.	.	.	.	.	.	.	.	.	.	.	.	.	.
.	.	32g/	.	32g/	.	.	.	.	.	.	.	.	.	.	.	.	.	.	.
.	.	32f#/JJJ)	.	32f#/JJJ)	.	.	.	.	.	.	.	.	.	.	.	.	.	.	.
8G#X\J	.	(32e/LLL	.	(32e/LLL	.	.	.	.	.	.	.	.	.	.	.	.	.	.	.
.	.	32f#/	.	32f#/	.	.	.	.	.	.	.	.	.	.	.	.	.	.	.
.	.	32e/	.	32e/	.	.	.	.	.	.	.	.	.	.	.	.	.	.	.
.	.	32d/JJJ)	.	32d/JJJ)	.	.	.	.	.	.	.	.	.	.	.	.	.	.	.
=44	=44	=44	=44	=44	=44	=44	=44	=44	=44	=44	=44	=44	=44	=44	=44	=44	=44	=44	=44
!	!	!LO:LB:g=original	!	!	!	!	!	!	!	!	!	!	!	!	!	!	!	!	!
!	!	!	!	!	!	!	!	!	!	!	!	!	!	!	!	!	!	!LO:LB:g=original	!
8A\L	.	16c#X/LL	.	16c#X/LL	.	.	.	.	.	.	.	.	.	.	.	4.a\	.	4.a\	.
.	.	16e/	.	16e/	.	.	.	.	.	.	.	.	.	.	.	.	.	.	.
8c#X\	.	16a/	.	16a/	.	.	.	.	.	.	.	.	.	.	.	.	.	.	.
.	.	16cc#y/	.	16cc#y/	.	.	.	.	.	.	.	.	.	.	.	.	.	.	.
8A\J	.	16ee/	.	16ee/	.	.	.	.	.	.	.	.	.	.	.	.	.	.	.
.	.	16gg/JJ	.	16gg/JJ	.	.	.	.	.	.	.	.	.	.	.	.	.	.	.
=45	=45	=45	=45	=45	=45	=45	=45	=45	=45	=45	=45	=45	=45	=45	=45	=45	=45	=45	=45
!LO:TX:a:t=P:problem:mixed beam	!	!	!	!	!	!	!	!	!	!	!	!	!	!	!	!	!	!	!
8d\L	.	4ff# 4a 4d/	.	16ff#\LL	.	.	.	.	.	.	.	.	.	.	.	4d/	.	4dd\	.
.	.	.	.	16dd\	.	.	.	.	.	.	.	.	.	.	.	.	.	.	.
8D/	.	.	.	16ff#\	.	.	.	.	.	.	.	.	.	.	.	.	.	.	.
.	.	.	.	16aa\	.	.	.	.	.	.	.	.	.	.	.	.	.	.	.
8F#/J	.	8dd\	.	16.ddd\	.	.	.	.	.	.	.	.	.	.	.	8d/	.	8a\	.
.	.	.	.	32aa\JJk	.	.	.	.	.	.	.	.	.	.	.	.	.	.	.
=46	=46	=46	=46	=46	=46	=46	=46	=46	=46	=46	=46	=46	=46	=46	=46	=46	=46	=46	=46
!LO:LB:g=original	!	!	!	!	!	!	!	!	!	!	!	!	!	!	!	!	!	!	!
.	.	.	.	8qqaa/	.	.	.	.	.	.	.	.	.	.	.	.	.	.	.
!LO:TX:a:t=P:problem:mixed beam	!	!	!	!	!	!	!	!	!	!	!	!	!	!	!	!	!	!	!
8G\L	.	8dd\L	.	8gg\L	.	.	.	.	.	.	.	.	.	.	.	8g\	.	8b\L	.
8A\	.	8dd\	.	8ff#\	.	.	.	.	.	.	.	.	.	.	.	8a\	.	8a\	.
8AA/J	.	8cc#X\J	.	8ee\J	.	.	.	.	.	.	.	.	.	.	.	8a\	.	8a\J	.
=47	=47	=47	=47	=47	=47	=47	=47	=47	=47	=47	=47	=47	=47	=47	=47	=47	=47	=47	=47
!	!LO:DY:b:t=pia.	!	!	!	!	!LO:N:vis=00	!	!LO:N:vis=1	!	!LO:N:vis=00	!	!	!LO:N:vis=1	!	!	!	!	!	!
16D\LL	p	8dd\	.	8dd\	.	1.r	.	4.r	.	1.r	.	.	4.r	.	.	8d/	.	8a\	.
16D\	.	.	.	.	.	.	.	.	.	.	.	.	.	.	.	.	.	.	.
16D\	.	8r	.	8r	.	.	.	.	.	.	.	.	.	.	.	8d/	.	8r	.
16D\	.	.	.	.	.	.	.	.	.	.	.	.	.	.	.	.	.	.	.
16D\	.	8r	.	8r	.	.	.	.	.	.	.	.	.	.	.	8r	.	8r	.
16D\JJ	.	.	.	.	.	.	.	.	.	.	.	.	.	.	.	.	.	.	.
=48	=48	=48	=48	=48	=48	=48	=48	=48	=48	=48	=48	=48	=48	=48	=48	=48	=48	=48	=48
!	!	!	!LO:DY:b:t=po..	!	!LO:DY:b:t=pia.	!	!	!LO:TX:a:t=Solo	!	!	!	!	!	!	!	!LO:N:vis=00	!	!LO:N:vis=00	!
*tremolo	*	*	*	*	*	*	*	*	*	*	*	*	*	*	*	*	*	*	*
16D\LL	.	4.b\	p	4.dd\	p	.	.	4B\	Sit	.	.	.	4dd\	Sit	.	1.r	.	1.r	.
16D\	.	.	.	.	.	.	.	.	.	.	.	.	.	.	.	.	.	.	.
16D\	.	.	.	.	.	.	.	.	.	.	.	.	.	.	.	.	.	.	.
16D\	.	.	.	.	.	.	.	.	.	.	.	.	.	.	.	.	.	.	.
16D\	.	.	.	.	.	.	.	8B\	laus	.	.	.	8dd\	laus	.	.	.	.	.
16D\JJ	.	.	.	.	.	.	.	.	.	.	.	.	.	.	.	.	.	.	.
=49	=49	=49	=49	=49	=49	=49	=49	=49	=49	=49	=49	=49	=49	=49	=49	=49	=49	=49	=49
16D\LL	.	(8b\L	.	(8dd\L	.	.	.	(8B\L	ple-	.	.	.	(8dd\L	ple-	.	.	.	.	.
16D\	.	.	.	.	.	.	.	.	.	.	.	.	.	.	.	.	.	.	.
16D\	.	8gg\	.	8bb\	.	.	.	8g\J)	.	.	.	.	8bb\)	.	.	.	.	.	.
16D\	.	.	.	.	.	.	.	.	.	.	.	.	.	.	.	.	.	.	.
16D\	.	8ff#\J)	.	8aa\J)	.	.	.	8f#\	-na	.	.	.	8aa\J	-na	.	.	.	.	.
16D\JJ	.	.	.	.	.	.	.	.	.	.	.	.	.	.	.	.	.	.	.
=50	=50	=50	=50	=50	=50	=50	=50	=50	=50	=50	=50	=50	=50	=50	=50	=50	=50	=50	=50
!	!	!	!	!	!	!	!	!LO:LB:g=original	!	!	!	!	!	!	!	!	!	!	!
16D\LL	.	(8ee\L	.	(8gg\L	.	.	.	8e\L	Sit	.	.	.	8gg\L	Sit	.	.	.	.	.
16D\	.	.	.	.	.	.	.	.	.	.	.	.	.	.	.	.	.	.	.
16D\	.	8dd\	.	8ff#\	.	.	.	8d\J	.	.	.	.	8ff#\J	.	.	.	.	.	.
16D\	.	.	.	.	.	.	.	.	.	.	.	.	.	.	.	.	.	.	.
16D\	.	8cc\J)	.	8ee\J)	.	.	.	8c\	So-	.	.	.	8ee\	So-	.	.	.	.	.
16D\JJ	.	.	.	.	.	.	.	.	.	.	.	.	.	.	.	.	.	.	.
=51	=51	=51	=51	=51	=51	=51	=51	=51	=51	=51	=51	=51	=51	=51	=51	=51	=51	=51	=51
!	!	!	!	!LO:LB:g=original	!	!	!	!	!	!	!	!	!LO:LB:g=original	!	!	!	!	!	!
!	!	!	!	!	!	!	!	!	!	!LO:N:vis=00	!	!	!	!	!	!	!	!	!
16D\LL	.	4.b\	.	4.dd\	.	1.r	.	4.B\	-no-	1.r	.	.	4.dd\	-no-	.	.	.	.	.
16D\	.	.	.	.	.	.	.	.	.	.	.	.	.	.	.	.	.	.	.
16D\	.	.	.	.	.	.	.	.	.	.	.	.	.	.	.	.	.	.	.
16D\	.	.	.	.	.	.	.	.	.	.	.	.	.	.	.	.	.	.	.
16D\	.	.	.	.	.	.	.	.	.	.	.	.	.	.	.	.	.	.	.
16D\JJ	.	.	.	.	.	.	.	.	.	.	.	.	.	.	.	.	.	.	.
=52	=52	=52	=52	=52	=52	=52	=52	=52	=52	=52	=52	=52	=52	=52	=52	=52	=52	=52	=52
.	.	.	.	8qee/	.	.	.	.	.	.	.	.	.	.	.	.	.	.	.
!	!	!	!	!	!	!	!	!	!	!	!	!	!	!	!	!LO:N:vis=00	!	!LO:N:vis=00	!
16D\LL	.	(8b\L	.	16dd\LL	.	.	.	(8B\L	.	.	.	.	(8dd\L	.	.	1.r	.	1.r	.
16D\	.	.	.	32cc\L	.	.	.	.	.	.	.	.	.	.	.	.	.	.	.
.	.	.	.	32dd\JJJ	.	.	.	.	.	.	.	.	.	.	.	.	.	.	.
16D\	.	8cc\	.	(8ee\L	.	.	.	8c\)	.	.	.	.	8ee\)	.	.	.	.	.	.
16D\	.	.	.	.	.	.	.	.	.	.	.	.	.	.	.	.	.	.	.
16D\	.	8g#X\J)	.	8b\J)	.	.	.	8B\J	.	.	.	.	8dd\J	.	.	.	.	.	.
16D\JJ	.	.	.	.	.	.	.	.	.	.	.	.	.	.	.	.	.	.	.
=53	=53	=53	=53	=53	=53	=53	=53	=53	=53	=53	=53	=53	=53	=53	=53	=53	=53	=53	=53
!	!	!LO:LB:g=original	!	!	!	!	!	!	!	!	!	!	!	!	!	!	!	!	!
.	.	.	.	8qdd/	.	.	.	.	.	.	.	.	.	.	.	.	.	.	.
16D\LL	.	8a/L	.	(32cc\LLL	.	.	.	4A\	-ra	.	.	.	4cc\	-ra	.	.	.	.	.
.	.	.	.	32b\	.	.	.	.	.	.	.	.	.	.	.	.	.	.	.
16D\	.	.	.	32cc\	.	.	.	.	.	.	.	.	.	.	.	.	.	.	.
.	.	.	.	32dd\JJJ)	.	.	.	.	.	.	.	.	.	.	.	.	.	.	.
16D\	.	8A/J	.	8cc\	.	.	.	.	.	.	.	.	.	.	.	.	.	.	.
16D\	.	.	.	.	.	.	.	.	.	.	.	.	.	.	.	.	.	.	.
16D\	.	8r	.	8r	.	.	.	8r	.	.	.	.	8r	.	.	.	.	.	.
16D\JJ	.	.	.	.	.	.	.	.	.	.	.	.	.	.	.	.	.	.	.
=54	=54	=54	=54	=54	=54	=54	=54	=54	=54	=54	=54	=54	=54	=54	=54	=54	=54	=54	=54
16D\LL	.	4.a\	.	4.cc\	.	.	.	4A\	Sit	.	.	.	4cc\	sit	.	.	.	.	.
16D\	.	.	.	.	.	.	.	.	.	.	.	.	.	.	.	.	.	.	.
16D\	.	.	.	.	.	.	.	.	.	.	.	.	.	.	.	.	.	.	.
16D\	.	.	.	.	.	.	.	.	.	.	.	.	.	.	.	.	.	.	.
16D\	.	.	.	.	.	.	.	8A\	ju-	.	.	.	8cc\	ju-	.	.	.	.	.
16D\JJ	.	.	.	.	.	.	.	.	.	.	.	.	.	.	.	.	.	.	.
=55	=55	=55	=55	=55	=55	=55	=55	=55	=55	=55	=55	=55	=55	=55	=55	=55	=55	=55	=55
!	!	!	!	!	!	!LO:N:vis=00	!	!	!	!LO:N:vis=00	!	!	!	!	!	!	!	!	!
16D\LL	.	(8a\L	.	(8cc\L	.	1.r	.	(8A\L	-cun-	1.r	.	.	(8cc\L	-cun-	.	.	.	.	.
16D\	.	.	.	.	.	.	.	.	.	.	.	.	.	.	.	.	.	.	.
16D\	.	8ff#\	.	8aa\)	.	.	.	8f#\J)	.	.	.	.	8aa\J)	.	.	.	.	.	.
16D\	.	.	.	.	.	.	.	.	.	.	.	.	.	.	.	.	.	.	.
16D\	.	8ee\J)	.	8gg\J	.	.	.	8e\	-da	.	.	.	8gg\	-da	.	.	.	.	.
16D\JJ	.	.	.	.	.	.	.	.	.	.	.	.	.	.	.	.	.	.	.
=56	=56	=56	=56	=56	=56	=56	=56	=56	=56	=56	=56	=56	=56	=56	=56	=56	=56	=56	=56
!	!	!	!	!	!	!	!	!	!	!	!	!	!	!	!	!LO:N:vis=00	!	!LO:N:vis=00	!
16D\LL	.	(8dd\L	.	(8ff#\L	.	.	.	(8d\L	Sit	.	.	.	8ff#\L	Sit	.	1.r	.	1.r	.
16D\	.	.	.	.	.	.	.	.	.	.	.	.	.	.	.	.	.	.	.
16D\	.	8cc\	.	8ee\	.	.	.	8c\J)	.	.	.	.	8ee\J	.	.	.	.	.	.
16D\	.	.	.	.	.	.	.	.	.	.	.	.	.	.	.	.	.	.	.
16D\	.	8b\J)	.	8dd\J)	.	.	.	8B\	de-	.	.	.	8dd\	de-	.	.	.	.	.
16D\JJ	.	.	.	.	.	.	.	.	.	.	.	.	.	.	.	.	.	.	.
=57	=57	=57	=57	=57	=57	=57	=57	=57	=57	=57	=57	=57	=57	=57	=57	=57	=57	=57	=57
!	!	!	!	!	!	!	!	!LO:LB:g=original	!	!	!	!	!	!	!	!	!	!	!
16D\LL	.	4.a\	.	4.cc\	.	.	.	4.A\	-co-	.	.	.	4.cc\	-co-	.	.	.	.	.
16D\	.	.	.	.	.	.	.	.	.	.	.	.	.	.	.	.	.	.	.
16D\	.	.	.	.	.	.	.	.	.	.	.	.	.	.	.	.	.	.	.
16D\	.	.	.	.	.	.	.	.	.	.	.	.	.	.	.	.	.	.	.
16D\	.	.	.	.	.	.	.	.	.	.	.	.	.	.	.	.	.	.	.
16D\JJ	.	.	.	.	.	.	.	.	.	.	.	.	.	.	.	.	.	.	.
=58	=58	=58	=58	=58	=58	=58	=58	=58	=58	=58	=58	=58	=58	=58	=58	=58	=58	=58	=58
!LO:TX:a:t=P:problem:w źródle takt dopisany ołówkiem	!	!	!	!	!	!	!	!	!	!	!	!	!	!	!	!	!	!	!
.	.	.	.	8qdd/	.	.	.	.	.	.	.	.	.	.	.	.	.	.	.
16D\LLyy	.	(8a/L	.	16cc\LL	.	.	.	(8A\L	.	.	.	.	8cc\L	.	.	.	.	.	.
16D\yy	.	.	.	32b\L	.	.	.	.	.	.	.	.	.	.	.	.	.	.	.
.	.	.	.	32cc\JJJ	.	.	.	.	.	.	.	.	.	.	.	.	.	.	.
16D\yy	.	8b/	.	8dd\L	.	.	.	8B\	.	.	.	.	(8dd\	.	.	.	.	.	.
16D\yy	.	.	.	.	.	.	.	.	.	.	.	.	.	.	.	.	.	.	.
16D\yy	.	8f#/J)	.	8a\J	.	.	.	8A\J)	.	.	.	.	8cc\J)	.	.	.	.	.	.
16D\JJyy	.	.	.	.	.	.	.	.	.	.	.	.	.	.	.	.	.	.	.
*Xtremolo	*	*	*	*	*	*	*	*	*	*	*	*	*	*	*	*	*	*	*
=59	=59	=59	=59	=59	=59	=59	=59	=59	=59	=59	=59	=59	=59	=59	=59	=59	=59	=59	=59
!LO:LB:g=original	!	!	!	!	!	!	!	!	!	!	!	!	!LO:LB:g=original	!	!	!	!	!	!
.	.	.	.	8qcc/	.	.	.	.	.	.	.	.	.	.	.	.	.	.	.
!	!	!	!	!	!	!LO:N:vis=1	!	!	!	!LO:N:vis=1	!	!	!	!	!	!	!	!	!
*	*	*tremolo	*	*	*	*	*	*	*	*	*	*	*	*	*	*	*	*	*
16D\LL	.	16g/LL	.	(32b\LLL	.	4.r	.	4G\	-ra	4.r	.	.	4b\	-ra	.	.	.	.	.
.	.	.	.	32a\	.	.	.	.	.	.	.	.	.	.	.	.	.	.	.
16G\	.	16g/	.	32b\	.	.	.	.	.	.	.	.	.	.	.	.	.	.	.
.	.	.	.	32cc\JJJ)	.	.	.	.	.	.	.	.	.	.	.	.	.	.	.
16G\	.	16g/	.	8b\	.	.	.	.	.	.	.	.	.	.	.	.	.	.	.
16G\JJ	.	16g/	.	.	.	.	.	.	.	.	.	.	.	.	.	.	.	.	.
16Fn\LL	.	16g/	.	8r	.	.	.	8r	.	.	.	.	8r	.	.	.	.	.	.
16F\JJ	.	16g/JJ	.	.	.	.	.	.	.	.	.	.	.	.	.	.	.	.	.
=60	=60	=60	=60	=60	=60	=60	=60	=60	=60	=60	=60	=60	=60	=60	=60	=60	=60	=60	=60
!	!	!	!	!LO:LB:g=original	!	!	!	!	!	!	!	!	!	!	!	!	!	!	!
!	!LO:DY:b:t=for.	!	!LO:DY:b:t=for.	!	!	!	!	!	!	!	!	!	!	!	!	!	!	!	!
*tremolo	*	*	*	*	*	*	*	*	*	*	*	*	*	*	*	*	*	*	*
16E\LL	f	16g/LL	f	8cc 8e 8G/	.	4G\	Di-	4e\	Di-	4e\	Di-	.	4cc\	di-	.	4.G/	.	4.g\	.
16E\	.	16g/	.	.	.	.	.	.	.	.	.	.	.	.	.	.	.	.	.
.	.	.	.	8qdd/	.	.	.	.	.	.	.	.	.	.	.	.	.	.	.
16E\	.	16g/	.	(32cc\LLL	.	.	.	.	.	.	.	.	.	.	.	.	.	.	.
.	.	.	.	32b\	.	.	.	.	.	.	.	.	.	.	.	.	.	.	.
16E\	.	16g/	.	32cc\	.	.	.	.	.	.	.	.	.	.	.	.	.	.	.
.	.	.	.	32dd\JJJ)	.	.	.	.	.	.	.	.	.	.	.	.	.	.	.
16E\	.	16g/	.	16cc'\LL	.	8G\	-es	8e\	-es	8e\	-es	.	8cc\	-es	.	.	.	.	.
16E\JJ	.	16g/JJ	.	16cc'\JJ	.	.	.	.	.	.	.	.	.	.	.	.	.	.	.
*	*	*Xtremolo	*	*	*	*	*	*	*	*	*	*	*	*	*	*	*	*	*
=61	=61	=61	=61	=61	=61	=61	=61	=61	=61	=61	=61	=61	=61	=61	=61	=61	=61	=61	=61
16D\LL	.	8g/	.	4.b\	.	4G\	e-	4d\	e-	4d\	e-	.	4dd\	e-	.	4.G/	.	4.g\	.
16D\	.	.	.	.	.	.	.	.	.	.	.	.	.	.	.	.	.	.	.
16D\	.	(32g/LLL	.	.	.	.	.	.	.	.	.	.	.	.	.	.	.	.	.
.	.	32f#/	.	.	.	.	.	.	.	.	.	.	.	.	.	.	.	.	.
16D\	.	32g/	.	.	.	.	.	.	.	.	.	.	.	.	.	.	.	.	.
.	.	32a/JJJ)	.	.	.	.	.	.	.	.	.	.	.	.	.	.	.	.	.
16D\	.	16g/LL	.	.	.	8G\	-nim	8d\	-nim	8d\	-nim	.	8dd\	-nim	.	.	.	.	.
16D\JJ	.	16g/JJ	.	.	.	.	.	.	.	.	.	.	.	.	.	.	.	.	.
=62	=62	=62	=62	=62	=62	=62	=62	=62	=62	=62	=62	=62	=62	=62	=62	=62	=62	=62	=62
!	!	!LO:LB:g=original	!	!	!	!LO:LB:g=original	!	!	!	!	!	!	!	!	!	!	!	!	!
*	*	*tremolo	*	*	*	*	*	*	*	*	*	*	*	*	*	*	*	*	*
16C/LL	.	16g/LL	.	8ee 8g 8c/	.	8G\	So-	8c\	So-	8g\	So-	.	8ee\	So-	.	4.G/	.	4.g\	.
16C/	.	16g/	.	.	.	.	.	.	.	.	.	.	.	.	.	.	.	.	.
16C/	.	16g/	.	(32ee\LLL	.	8G\	-le-	8c\	-lem-	8g\	-le-	.	8ee\	-le-	.	.	.	.	.
.	.	.	.	32dd\	.	.	.	.	.	.	.	.	.	.	.	.	.	.	.
16C/	.	16g/	.	32ee\	.	.	.	.	.	.	.	.	.	.	.	.	.	.	.
.	.	.	.	32ff#\JJJ)	.	.	.	.	.	.	.	.	.	.	.	.	.	.	.
16C/	.	16g/	.	16ee'\LL	.	8G\	-mniſ	8c\	-nis	8g\	-mnis	.	8ee\	-mnis	.	.	.	.	.
16C/JJ	.	16g/JJ	.	16ee'\JJ	.	.	.	.	.	.	.	.	.	.	.	.	.	.	.
*	*	*Xtremolo	*	*	*	*	*	*	*	*	*	*	*	*	*	*	*	*	*
=63	=63	=63	=63	=63	=63	=63	=63	=63	=63	=63	=63	=63	=63	=63	=63	=63	=63	=63	=63
!	!	!	!	!	!	!	!	!LO:LB:g=original	!	!	!	!	!	!	!	!	!	!	!
16BB/LL	.	8g/	.	4.dd\	.	8.G\	a-	8.B\	a-	8.g#X\	a-	.	8.dd\	a-	.	4.G/	.	4.g\	.
16BB/	.	.	.	.	.	.	.	.	.	.	.	.	.	.	.	.	.	.	.
16BB/	.	(32g/LLL	.	.	.	.	.	.	.	.	.	.	.	.	.	.	.	.	.
.	.	32f#/	.	.	.	.	.	.	.	.	.	.	.	.	.	.	.	.	.
16BB/	.	32g/	.	.	.	16G\	-gi-	16B\	-gi-	16g#\	-gi-	.	16dd\	-gi-	.	.	.	.	.
.	.	32a/JJJ)	.	.	.	.	.	.	.	.	.	.	.	.	.	.	.	.	.
16BB/	.	16g/LL	.	.	.	8G\	-tur	8B\	-tur	8g#\	-tur	.	8dd\	-tur	.	.	.	.	.
16BB/JJ	.	16g/JJ	.	.	.	.	.	.	.	.	.	.	.	.	.	.	.	.	.
=64	=64	=64	=64	=64	=64	=64	=64	=64	=64	=64	=64	=64	=64	=64	=64	=64	=64	=64	=64
*	*	*tremolo	*	*	*	*	*	*	*	*	*	*	*	*	*	*	*	*	*
16D\LL	.	16aLL 16d/	.	8ff#X 8a 8d/	.	8r	.	8r	.	8r	.	.	8r	.	.	4.d/	.	4.a\	.
16D\	.	16a 16d/	.	.	.	.	.	.	.	.	.	.	.	.	.	.	.	.	.
.	.	.	.	8qgg/	.	.	.	.	.	.	.	.	.	.	.	.	.	.	.
16D\	.	16a 16d/	.	32ff#\LLL	.	8F#\	di-	8c\	di-	8a\	Di-	.	8dd\	di-	.	.	.	.	.
.	.	.	.	32ee\	.	.	.	.	.	.	.	.	.	.	.	.	.	.	.
16D\	.	16a 16d/	.	32ff#\	.	.	.	.	.	.	.	.	.	.	.	.	.	.	.
.	.	.	.	32gg\JJJ	.	.	.	.	.	.	.	.	.	.	.	.	.	.	.
16D\	.	16a 16d/	.	(16aa\LL	.	8F#\	-es	8c\	-es	8a\	-es	.	8dd\	-es	.	.	.	.	.
16D\JJ	.	16aJJ 16d/	.	16ff#\JJ)	.	.	.	.	.	.	.	.	.	.	.	.	.	.	.
=65	=65	=65	=65	=65	=65	=65	=65	=65	=65	=65	=65	=65	=65	=65	=65	=65	=65	=65	=65
!	!	!	!	!	!	!	!	!	!	!LO:LB:g=original	!	!	!LO:LB:g=original	!	!	!LO:LB:g=original	!	!	!
16D\LL	.	16bLL 16d/	.	8gg 8b 8d/	.	8r	.	8r	.	8r	.	.	8r	.	.	4.g\	.	4.b\	.
16D\	.	16b 16d/	.	.	.	.	.	.	.	.	.	.	.	.	.	.	.	.	.
.	.	.	.	8qaa/	.	.	.	.	.	.	.	.	.	.	.	.	.	.	.
16D\	.	16b 16d/	.	(32gg\LLL	.	8G\	e-	8B\	e-	8g\	e-	.	8dd\	e-	.	.	.	.	.
.	.	.	.	32ff#\	.	.	.	.	.	.	.	.	.	.	.	.	.	.	.
16D\	.	16b 16d/	.	32gg\	.	.	.	.	.	.	.	.	.	.	.	.	.	.	.
.	.	.	.	32aa\JJJ)	.	.	.	.	.	.	.	.	.	.	.	.	.	.	.
16D\	.	16b 16d/	.	(16bb\LL	.	8G\	-nim	8B\	-nim	8g\	-nim	.	8dd\	-nim	.	.	.	.	.
16D\JJ	.	16bJJ 16d/	.	16gg\JJ)	.	.	.	.	.	.	.	.	.	.	.	.	.	.	.
*Xtremolo	*	*Xtremolo	*	*	*	*	*	*	*	*	*	*	*	*	*	*	*	*	*
=66	=66	=66	=66	=66	=66	=66	=66	=66	=66	=66	=66	=66	=66	=66	=66	=66	=66	=66	=66
!	!	!	!	!LO:LB:g=original	!	!	!	!	!	!	!	!	!	!	!	!	!	!	!
8D\L	.	4a 4d/	.	8dd\L	.	4F#\	So-	(8A\L	So-	8f#\L	So-	.	8r	.	.	8d/	.	(8dd\L	.
8F#\	.	.	.	16.cc\L	.	.	.	8c\J)	.	8a\	.	.	4dd\	So-	.	8a\	.	8cc\)	.
.	.	.	.	32a\K	.	.	.	.	.	.	.	.	.	.	.	.	.	.	.
8G\J	.	8b 8d/	.	16.b\	.	8G\	.	8B`\	.	8g\J	.	.	.	.	.	8g\	.	8b'\J	.
.	.	.	.	32g\JJk	.	.	.	.	.	.	.	.	.	.	.	.	.	.	.
=67	=67	=67	=67	=67	=67	=67	=67	=67	=67	=67	=67	=67	=67	=67	=67	=67	=67	=67	=67
!	!	!	!	!	!	!LO:LB:g=original	!	!	!	!	!	!	!	!	!	!	!	!	!
8D\L	.	4a 4d/	.	8dd\L	.	4F#\	-le-	(8A\L	-lem-	(8f#\L	-lem-	.	4dd\	-le-	.	8d/	.	(8dd\L	.
8F#\	.	.	.	16.cc\L	.	.	.	8c\)	.	8a\J)	.	.	.	.	.	8a\	.	8cc\)	.
.	.	.	.	32a\K	.	.	.	.	.	.	.	.	.	.	.	.	.	.	.
8G\J	.	8b 8d/	.	16.b\	.	8G\	-mnis	8B`\J	-nis	8g\	-nis	.	8dd\	-mnis	.	8g\	.	8b'\J	.
.	.	.	.	32g\JJk	.	.	.	.	.	.	.	.	.	.	.	.	.	.	.
=68	=68	=68	=68	=68	=68	=68	=68	=68	=68	=68	=68	=68	=68	=68	=68	=68	=68	=68	=68
!	!	!	!	!	!	!	!	!LO:LB:g=original	!	!	!	!	!	!	!	!	!	!	!
*	*	*^	*	*	*	*	*	*	*	*	*	*	*	*	*	*	*	*	*
8D\L	.	8a/L	8f#\L	.	8dd'\L	.	8.D\	a-	8.A\	a-	8.f#\	a-	.	8.dd\	a-	.	4.d/	.	4.a\	.
8D\	.	8a/	8f#\	.	8dd'\	.	.	.	.	.	.	.	.	.	.	.	.	.	.	.
.	.	.	.	.	.	.	16D\	-gi-	16A\	-gi-	16f#\	-gi-	.	16dd\	-gi-	.	.	.	.	.
8D\J	.	8a/J	8f#\J	.	8dd'\J	.	8D\	-tur	8A\	-tur	8f#\	-tur	.	8dd\	-tur	.	.	.	.	.
=69	=69	=69	=69	=69	=69	=69	=69	=69	=69	=69	=69	=69	=69	=69	=69	=69	=69	=69	=69	=69
!LO:LB:g=original	!	!	!	!	!	!	!LO:N:vis=0	!	!LO:N:vis=0	!	!	!	!	!	!	!	!	!	!	!
!	!	!	!	!	!	!LO:DY:b:t=piano.	!	!	!	!	!	!	!	!	!	!	!LO:TX:a:t=r.:problem:takt dopisany ołówkiem	!	!LO:TX:a:t=1.:problem:takt dopisany ołówkiem	!
8D\	.	8a/	8f#\	.	16dd'\LL	p	2.r	.	2.r	.	4.r	.	.	4.r	.	.	4.r	.	4.r	.
.	.	.	.	.	16dd'\	.	.	.	.	.	.	.	.	.	.	.	.	.	.	.
8r	.	8r	4ryy	.	16dd'\	.	.	.	.	.	.	.	.	.	.	.	.	.	.	.
.	.	.	.	.	16dd'\	.	.	.	.	.	.	.	.	.	.	.	.	.	.	.
8r	.	8r	.	.	16dd'\	.	.	.	.	.	.	.	.	.	.	.	.	.	.	.
.	.	.	.	.	16dd'\JJ	.	.	.	.	.	.	.	.	.	.	.	.	.	.	.
*	*	*v	*v	*	*	*	*	*	*	*	*	*	*	*	*	*	*	*	*	*
=70	=70	=70	=70	=70	=70	=70	=70	=70	=70	=70	=70	=70	=70	=70	=70	=70	=70	=70	=70
!	!	!LO:LB:g=original	!	!	!	!	!	!	!	!	!	!	!	!	!	!	!	!LO:LB:g=original	!
*	*	*	*	*tremolo	*	*	*	*	*	*	*	*	*	*	*	*	*	*	*
8r	.	8r	.	16dd\LL	.	.	.	.	.	8r	.	.	8r	.	.	8r	.	8r	.
.	.	.	.	16dd\	.	.	.	.	.	.	.	.	.	.	.	.	.	.	.
!	!	!	!LO:DY:b	!	!	!	!	!	!	!	!	!	!	!	!	!	!	!	!
8r	.	8r	p	16dd\	.	.	.	.	.	8f#\	in	.	8a\	in	.	8r	.	8r	.
.	.	.	.	16dd\	.	.	.	.	.	.	.	.	.	.	.	.	.	.	.
!	!LO:DY:b:t=pia.	!	!	!	!	!	!	!	!	!	!	!	!	!	!	!	!	!	!
16D\LL	p	8a 8d/	.	16dd\	.	.	.	.	.	8a\	qua	.	8cc\	qua	.	8d/	.	8a\	p
16F#\JJ	.	.	.	16dd\JJ	.	.	.	.	.	.	.	.	.	.	.	.	.	.	.
=71	=71	=71	=71	=71	=71	=71	=71	=71	=71	=71	=71	=71	=71	=71	=71	=71	=71	=71	=71
!	!	!	!	!	!	!	!	!	!	!LO:LB:g=original	!	!	!LO:LB:g=original	!	!	!	!	!	!
8G\L	.	8bL 8d/	.	16dd\LL	.	8r	.	8r	.	8g\	Men-	.	8b\	Men-	.	8g\	.	8b\L	.
.	.	.	.	16dd\	.	.	.	.	.	.	.	.	.	.	.	.	.	.	.
8D\J	.	8aJ 8d/	.	16dd\	.	8F#\	pri-	8A\	pri-	8f#\	-sae	.	8a\	-sae	.	8d/	.	8a\J	.
.	.	.	.	16dd\	.	.	.	.	.	.	.	.	.	.	.	.	.	.	.
8r	.	8r	.	16dd\	.	8A\	-ma	8c\	-ma	8r	.	.	8r	.	.	8r	.	8r	.
.	.	.	.	16dd\JJ	.	.	.	.	.	.	.	.	.	.	.	.	.	.	.
=72	=72	=72	=72	=72	=72	=72	=72	=72	=72	=72	=72	=72	=72	=72	=72	=72	=72	=72	=72
8r	.	8r	.	16dd\LL	.	8G\	hu-	8B\	hu-	8r	.	.	8r	.	.	8r	.	8r	.
.	.	.	.	16dd\	.	.	.	.	.	.	.	.	.	.	.	.	.	.	.
8r	.	8r	.	16dd\	.	8F#\	-ius	8A\	-ius	8f#\	in	.	8a\	in	.	8r	.	8r	.
.	.	.	.	16dd\	.	.	.	.	.	.	.	.	.	.	.	.	.	.	.
16D\LL	.	8a 8d/	.	16dd\	.	8r	.	8r	.	8a\	qua	.	8cc\	qua	.	8d/	.	8a\	.
16F#\JJ	.	.	.	16dd\JJ	.	.	.	.	.	.	.	.	.	.	.	.	.	.	.
=73	=73	=73	=73	=73	=73	=73	=73	=73	=73	=73	=73	=73	=73	=73	=73	=73	=73	=73	=73
8G\L	.	8bL 8d/	.	16dd\LL	.	8r	.	8r	.	8g\	Men-	.	8b\	Men-	.	8g\	.	8b\L	.
.	.	.	.	16dd\	.	.	.	.	.	.	.	.	.	.	.	.	.	.	.
8D\J	.	8aJ 8d/	.	16dd\	.	8F#\	pri-	8A\	pri-	8f#\	-sae	.	8a\	-sae	.	8d/	.	8a\J	.
.	.	.	.	16dd\	.	.	.	.	.	.	.	.	.	.	.	.	.	.	.
8r	.	8r	.	16dd\	.	8A\	-ma	8c\	-ma	8r	.	.	8r	.	.	8r	.	8r	.
.	.	.	.	16dd\JJ	.	.	.	.	.	.	.	.	.	.	.	.	.	.	.
=74	=74	=74	=74	=74	=74	=74	=74	=74	=74	=74	=74	=74	=74	=74	=74	=74	=74	=74	=74
!	!	!	!	!	!	!LO:LB:g=original	!	!	!	!	!	!	!	!	!	!	!	!	!
8r	.	8r	.	16dd\LL	.	8G\	hu-	8B\	hu-	8r	.	.	8r	.	.	8r	.	8r	.
.	.	.	.	16dd\	.	.	.	.	.	.	.	.	.	.	.	.	.	.	.
8r	.	8r	.	16dd\	.	8F#\	-ius	8A\	-ius	8f#\	in	.	8a\	in	.	8r	.	8r	.
.	.	.	.	16dd\	.	.	.	.	.	.	.	.	.	.	.	.	.	.	.
!	!LO:DY:b:t=for.	!	!	!	!	!	!	!	!	!	!	!	!	!	!	!	!	!	!
8F#\	f	8a/	.	16dd\	.	8r	.	8r	.	8a\	qua	.	8cc\	qua	.	8d/	.	8a\	f
.	.	.	.	16dd\JJ	.	.	.	.	.	.	.	.	.	.	.	.	.	.	.
*	*	*	*	*Xtremolo	*	*	*	*	*	*	*	*	*	*	*	*	*	*	*
=75	=75	=75	=75	=75	=75	=75	=75	=75	=75	=75	=75	=75	=75	=75	=75	=75	=75	=75	=75
!	!	!	!	!LO:LB:g=original	!	!	!	!LO:PB:g=original	!	!	!	!	!	!	!	!	!	!	!
!	!	!	!LO:DY:b:rj:t=for.	!	!LO:DY:b:t=for.	!	!	!	!	!	!	!	!	!	!	!	!LO:DY:rj	!	!
*	*	*tremolo	*	*	*	*	*	*	*	*	*	*	*	*	*	*	*	*	*
8G\L	.	16bLL 16d/	f	8dd\L	f	8r	.	8r	.	4g\	Men-	.	4b\	Men-	.	4.G/	f	4.g\	.
.	.	16b 16d/	.	.	.	.	.	.	.	.	.	.	.	.	.	.	.	.	.
8G\	.	16b 16d/	.	(32dd\LL	.	8G\	pri-	8d\	pri-	.	.	.	.	.	.	.	.	.	.
.	.	.	.	32cc\	.	.	.	.	.	.	.	.	.	.	.	.	.	.	.
.	.	16b 16d/	.	32dd\	.	.	.	.	.	.	.	.	.	.	.	.	.	.	.
.	.	.	.	32ee\JJJ)	.	.	.	.	.	.	.	.	.	.	.	.	.	.	.
8G\J	.	16b 16d/	.	16dd'\LL	.	8G\	-ma	8d\	-ma	8g\	-sae	.	8b\	-sae	.	.	.	.	.
.	.	16bJJ 16d/	.	16dd'\JJ	.	.	.	.	.	.	.	.	.	.	.	.	.	.	.
=76	=76	=76	=76	=76	=76	=76	=76	=76	=76	=76	=76	=76	=76	=76	=76	=76	=76	=76	=76
!	!	!	!	!	!	!	!	!	!	!LO:PB:g=original	!	!	!	!	!	!LO:LB:g=original	!	!	!
8G\	.	16bLL 16d/	.	4.ffn\	.	4.B\	re-	4.d\	re-	4g\	pri-	.	4ffn\	pri-	.	4.G/	.	4.g\	.
.	.	16b 16d/	.	.	.	.	.	.	.	.	.	.	.	.	.	.	.	.	.
(32G\LLL	.	16b 16d/	.	.	.	.	.	.	.	.	.	.	.	.	.	.	.	.	.
32F#\	.	.	.	.	.	.	.	.	.	.	.	.	.	.	.	.	.	.	.
32G\	.	16b 16d/	.	.	.	.	.	.	.	.	.	.	.	.	.	.	.	.	.
32A\JJJ)	.	.	.	.	.	.	.	.	.	.	.	.	.	.	.	.	.	.	.
16G'\LL	.	16b 16d/	.	.	.	.	.	.	.	8g\	-ma	.	8ff\	-ma	.	.	.	.	.
16G'\JJ	.	16bJJ 16d/	.	.	.	.	.	.	.	.	.	.	.	.	.	.	.	.	.
=77	=77	=77	=77	=77	=77	=77	=77	=77	=77	=77	=77	=77	=77	=77	=77	=77	=77	=77	=77
!LO:LB:g=original	!	!	!	!	!	!	!	!	!	!	!	!	!LO:LB:g=original	!	!	!	!	!	!
*tremolo	*	*	*	*	*	*	*	*	*	*	*ij	*	*	*	*	*	*	*	*
16C/LL	.	16g/LL	.	8ee\	.	4.c\	-co-	4.c\	.	4g\	pri-	.	4ee\	pri-	.	4.G/	.	4.g\	.
16C/	.	16g/	.	.	.	.	.	.	.	.	.	.	.	.	.	.	.	.	.
.	.	.	.	8qqff#/	.	.	.	.	.	.	.	.	.	.	.	.	.	.	.
16C/	.	16g/	.	(32ee\LLL	.	.	.	.	.	.	.	.	.	.	.	.	.	.	.
.	.	.	.	32dd\	.	.	.	.	.	.	.	.	.	.	.	.	.	.	.
16C/	.	16g/	.	32ee\	.	.	.	.	.	.	.	.	.	.	.	.	.	.	.
.	.	.	.	32ff#\JJJ)	.	.	.	.	.	.	.	.	.	.	.	.	.	.	.
16C/	.	16g/	.	16ee'\LL	.	.	.	.	.	8g\	-ma	.	8ee\	-ma	.	.	.	.	.
*	*	*	*	*	*	*	*	*	*	*	*Xij	*	*	*	*	*	*	*	*
16C/JJ	.	16g/JJ	.	16ee'\JJ	.	.	.	.	.	.	.	.	.	.	.	.	.	.	.
=78	=78	=78	=78	=78	=78	=78	=78	=78	=78	=78	=78	=78	=78	=78	=78	=78	=78	=78	=78
16C/LL	.	16aLL 16d/	.	4.ff#X 4.a 4.d/	.	4d\	.	4d\	-co-	4.a\	hu-	.	4.ff#X\	hu-	.	4.d/	.	4.a\	.
16C/	.	16a 16d/	.	.	.	.	.	.	.	.	.	.	.	.	.	.	.	.	.
16C/	.	16a 16d/	.	.	.	.	.	.	.	.	.	.	.	.	.	.	.	.	.
16C/	.	16a 16d/	.	.	.	.	.	.	.	.	.	.	.	.	.	.	.	.	.
16C/	.	16a 16d/	.	.	.	8D\	-li-	8d\	-li-	.	.	.	.	.	.	.	.	.	.
16C/JJ	.	16aJJ 16d/	.	.	.	.	.	.	.	.	.	.	.	.	.	.	.	.	.
=79	=79	=79	=79	=79	=79	=79	=79	=79	=79	=79	=79	=79	=79	=79	=79	=79	=79	=79	=79
!	!	!LO:LB:g=original	!	!	!	!	!	!	!	!	!	!	!	!	!	!	!	!	!
16BB/LL	.	8b 8d/	.	8gg 8b 8d/	.	4G\	-tur	4d\	-tur	4b\	-ius	.	4gg\	-ius	.	8B/	.	8g\	.
16BB/	.	.	.	.	.	.	.	.	.	.	.	.	.	.	.	.	.	.	.
16BB/	.	8r	.	(32bb\LLL	.	.	.	.	.	.	.	.	.	.	.	8r	.	8r	.
.	.	.	.	32aa\	.	.	.	.	.	.	.	.	.	.	.	.	.	.	.
16BB/	.	.	.	32gg\	.	.	.	.	.	.	.	.	.	.	.	.	.	.	.
.	.	.	.	32ff#\JJJ)	.	.	.	.	.	.	.	.	.	.	.	.	.	.	.
16BB/	.	8r	.	(32gg\LLL	.	8r	.	8r	.	8r	.	.	8r	.	.	8r	.	8r	.
.	.	.	.	32ff#\	.	.	.	.	.	.	.	.	.	.	.	.	.	.	.
16BB/JJ	.	.	.	32ee\	.	.	.	.	.	.	.	.	.	.	.	.	.	.	.
.	.	.	.	32dd\JJJ)	.	.	.	.	.	.	.	.	.	.	.	.	.	.	.
=80	=80	=80	=80	=80	=80	=80	=80	=80	=80	=80	=80	=80	=80	=80	=80	=80	=80	=80	=80
!	!	!	!	!LO:LB:g=original	!	!	!	!	!	!	!	!	!	!	!	!	!	!	!
!	!	!	!	!	!	!	!	!	!	!	!	!	!	!	!	!LO:N:vis=1	!	!	!
16C/LL	.	16e/LL	.	(32ee\LLL	.	4.r	.	4.r	.	4.r	.	.	4.r	.	.	4.r	.	4.r	.
.	.	.	.	32dd\	.	.	.	.	.	.	.	.	.	.	.	.	.	.	.
16C/	.	16e/	.	32cc\	.	.	.	.	.	.	.	.	.	.	.	.	.	.	.
.	.	.	.	32b\JJJ)	.	.	.	.	.	.	.	.	.	.	.	.	.	.	.
16C/	.	16e/	.	(32cc\LLL	.	.	.	.	.	.	.	.	.	.	.	.	.	.	.
.	.	.	.	32b\	.	.	.	.	.	.	.	.	.	.	.	.	.	.	.
16C/	.	16e/	.	32a\	.	.	.	.	.	.	.	.	.	.	.	.	.	.	.
.	.	.	.	32g\JJJ)	.	.	.	.	.	.	.	.	.	.	.	.	.	.	.
16C/	.	16e/	.	(32a\LLL	.	.	.	.	.	.	.	.	.	.	.	.	.	.	.
.	.	.	.	32g\	.	.	.	.	.	.	.	.	.	.	.	.	.	.	.
16C/JJ	.	16e/JJ	.	32f#\	.	.	.	.	.	.	.	.	.	.	.	.	.	.	.
.	.	.	.	32e\JJJ)	.	.	.	.	.	.	.	.	.	.	.	.	.	.	.
=81	=81	=81	=81	=81	=81	=81	=81	=81	=81	=81	=81	=81	=81	=81	=81	=81	=81	=81	=81
16D/LL	.	16bLL 16d/	.	16d/LL	.	8d\	hu-	8d\	hu-	4g\	in-	.	4b\	in-	.	4.g\	.	4.b\	.
16D/	.	16b 16d/	.	16g/	.	.	.	.	.	.	.	.	.	.	.	.	.	.	.
16D/	.	16b 16d/	.	16b/	.	8d\	-ius	8d\	-ius	.	.	.	.	.	.	.	.	.	.
16D/	.	16b 16d/	.	16dd/	.	.	.	.	.	.	.	.	.	.	.	.	.	.	.
16D/	.	16b 16d/	.	16gg/	.	16d\	in-	16d\	in-	8g\	-Sti-	.	8b\	-Sti-	.	.	.	.	.
16D/JJ	.	16bJJ 16d/	.	16bb/JJ	.	16d\	-Sti-	16d\	-Sti-	.	.	.	.	.	.	.	.	.	.
=82	=82	=82	=82	=82	=82	=82	=82	=82	=82	=82	=82	=82	=82	=82	=82	=82	=82	=82	=82
!	!	!	!	!	!	!LO:LB:g=original	!	!LO:LB:g=original	!	!	!	!	!	!	!	!	!	!	!
16DD/LL	.	16aLL 16d/	.	16d/LL	.	4D\	-tu-	4d\	-tu-	4f#\	-tu-	.	4a\	-tu-	.	4.d/	.	4.a\	.
16DD/	.	16a 16d/	.	16f#/	.	.	.	.	.	.	.	.	.	.	.	.	.	.	.
16DD/	.	16a 16d/	.	16a/	.	.	.	.	.	.	.	.	.	.	.	.	.	.	.
16DD/	.	16a 16d/	.	16dd/	.	.	.	.	.	.	.	.	.	.	.	.	.	.	.
16DD/	.	16a 16d/	.	16ff#/	.	8D\	-ti-	8d\	-ti-	8f#\	-ti-	.	8a\	-ti-	.	.	.	.	.
16DD/JJ	.	16aJJ 16d/	.	16aa/JJ	.	.	.	.	.	.	.	.	.	.	.	.	.	.	.
*	*	*Xtremolo	*	*	*	*	*	*	*	*	*	*	*	*	*	*	*	*	*
=83	=83	=83	=83	=83	=83	=83	=83	=83	=83	=83	=83	=83	=83	=83	=83	=83	=83	=83	=83
!	!	!	!	!	!	!	!	!	!	!	!	!	!	!	!	!	!	!LO:LB:g=original	!
!LO:TX:a:t=P:problem:mixed beam	!	!	!	!	!	!	!	!	!	!	!	!	!	!	!	!	!	!	!
16GG/LL	.	8gL 8G/	.	8ggL 8b 8d 8G/	.	4G\	-o.	4d\	-o	4g\	-o	.	4b\	-o.	.	8B/	.	8g\L	.
16G\	.	.	.	.	.	.	.	.	.	.	.	.	.	.	.	.	.	.	.
16D\	.	8g 8G/	.	8gg 8b 8d 8G/	.	.	.	.	.	.	.	.	.	.	.	16B/LL	.	16g\Lk	.
16G\	.	.	.	.	.	.	.	.	.	.	.	.	.	.	.	16B/	.	16g\	.
16BB\	.	8gJ 8G/	.	8ggJ 8b 8d 8G/	.	8r	.	8r	.	8r	.	.	8r	.	.	16B/	.	16g\	.
16D\JJ	.	.	.	.	.	.	.	.	.	.	.	.	.	.	.	16B/JJ	.	16g\JJ	.
=84	=84	=84	=84	=84	=84	=84	=84	=84	=84	=84	=84	=84	=84	=84	=84	=84	=84	=84	=84
8GG/	.	8g 8G/	.	4gg 4b 4d 4G/	.	4.r	.	4.r	.	4.r	.	.	4.r	.	.	8B/	.	8g\	.
8r	.	8r	.	.	.	.	.	.	.	.	.	.	.	.	.	8r	.	8r	.
8r	.	8r	.	8r	.	.	.	.	.	.	.	.	.	.	.	8r	.	8r	.
==	==	==	==	==	==	==	==	==	==	==	==	==	==	==	==	==	==	==	==
*-	*-	*-	*-	*-	*-	*-	*-	*-	*-	*-	*-	*-	*-	*-	*-	*-	*-	*-	*-
!!!system-decoration: [g1][g2][g3]
!!!RDF**kern: > = above
!!!RDF**kern: < = below
!!!RDF**dynam: p = "po."
!!!RDF**dynam: f = "for"
!!!ENC: Anastazja Marusiak
!!!END: 2020-04-22
!!!ENC: Marta Lawrence
!!!END: 2020-06-27
